(G-code generated by FlatCAM Evo vUnstable - Version Date: 2023/6/31)

(Name: teszt5-F_Cu.gbr_iso_combined_cnc)
(Type: G-code from Geometry)
(Units: MM)

(Created on kedd, 16 január 2024 at 21:27)

(This preprocessor is the default preprocessor.)
(It is made to work with MACH3 compatible motion controllers.)

(TOOL DIAMETER: 0.2105 mm)
(Feedrate_XY: 120.0 mm/min)
(Feedrate_Z: 60.0 mm/min)
(Feedrate rapids 1500.0 mm/min)

(Z_Cut: -0.06 mm)
(Z_Move: 0.5 mm)
(Z Start: None mm)
(Z End: 15.0 mm)
(X,Y End: None mm)
(Steps per circle: 16)
(Preprocessor Geometry: default)

(X range:    1.0084 ...   15.5315  mm)
(Y range:    2.4935 ...   14.3118  mm)

(Spindle Speed: 0.0 RPM)
G21
G90
G94

G01 F120.00
G00 Z0.5000

M03
G01 F120.00
G00 X1.1446 Y5.9698
G01 F60.00
G01 Z-0.0600
G01 F120.00
G01 X1.1458 Y6.4900
G01 X1.1548 Y6.5198
G01 X1.1789 Y6.5526
G01 X1.2073 Y6.5712
G01 X1.2395 Y6.5797
G01 X2.2500 Y6.5803
G01 X2.3036 Y6.5655
G01 X7.0828 Y6.5627
G01 X7.1376 Y6.5311
G01 X7.1562 Y6.5027
G01 X7.1651 Y6.4654
G01 X7.1621 Y5.4345
G01 X7.1311 Y5.3824
G01 X7.1027 Y5.3638
G01 X7.0705 Y5.3553
G01 X6.4105 Y5.3547
G01 X6.4105 Y4.0255
G01 X9.2756 Y4.0255
G01 X9.3283 Y4.0775
G01 X9.3851 Y4.1146
G01 X9.4472 Y4.1400
G01 X9.5139 Y4.1534
G01 X10.8000 Y4.1552
G01 X10.8743 Y4.1473
G01 X10.9649 Y4.1146
G01 X11.0293 Y4.0712
G01 X11.0895 Y4.0055
G01 X13.4605 Y4.0055
G01 X13.5207 Y4.0712
G01 X13.5780 Y4.1108
G01 X13.6472 Y4.1400
G01 X13.7139 Y4.1534
G01 X15.0861 Y4.1534
G01 X15.1907 Y4.1261
G01 X15.2793 Y4.0712
G01 X15.3481 Y3.9930
G01 X15.3801 Y3.9311
G01 X15.3973 Y3.8743
G01 X15.4052 Y3.8000
G01 X15.4052 Y2.9750
G01 X15.3979 Y2.9034
G01 X15.3801 Y2.8439
G01 X15.3481 Y2.7820
G01 X15.2717 Y2.6975
G01 X15.2149 Y2.6604
G01 X15.1580 Y2.6367
G01 X15.0500 Y2.6198
G01 X13.7139 Y2.6216
G01 X13.6420 Y2.6367
G01 X13.5570 Y2.6769
G01 X13.4988 Y2.7238
G01 X13.4444 Y2.7945
G01 X11.0895 Y2.7945
G01 X11.0293 Y2.7288
G01 X10.9720 Y2.6892
G01 X10.9028 Y2.6600
G01 X10.8361 Y2.6466
G01 X9.5500 Y2.6448
G01 X9.4519 Y2.6587
G01 X9.3780 Y2.6892
G01 X9.2988 Y2.7488
G01 X9.2474 Y2.8145
G01 X1.2172 Y2.8173
G01 X1.1842 Y2.8307
G01 X1.1558 Y2.8568
G01 X1.1402 Y2.8867
G01 X1.1347 Y2.9200
G01 X1.1349 Y3.9254
G01 X1.1558 Y3.9832
G01 X1.2067 Y4.0198
G01 X1.2400 Y4.0253
G01 X5.1995 Y4.0255
G01 X5.1995 Y5.3545
G01 X1.7650 Y5.3545
G01 X1.6319 Y5.3697
G01 X1.2350 Y5.3708
G01 X1.2052 Y5.3798
G01 X1.1756 Y5.4006
G01 X1.1548 Y5.4302
G01 X1.1458 Y5.4600
G01 X1.1446 Y5.9698
G00 Z0.5000
G00 X1.0184 Y6.4750
G01 F60.00
G01 Z-0.0600
G01 F120.00
G01 X1.0320 Y6.5532
G01 X1.0793 Y6.6315
G01 X1.1514 Y6.6845
G01 X1.2382 Y6.7062
G01 X2.2500 Y6.7066
G01 X2.3311 Y6.6918
G01 X7.0600 Y6.6916
G01 X7.1162 Y6.6846
G01 X7.1802 Y6.6579
G01 X7.2307 Y6.6165
G01 X7.2695 Y6.5586
G01 X7.2892 Y6.4931
G01 X7.2916 Y5.4600
G01 X7.2860 Y5.4098
G01 X7.2579 Y5.3398
G01 X7.2237 Y5.2963
G01 X7.1802 Y5.2621
G01 X7.1162 Y5.2354
G01 X7.0600 Y5.2284
G01 X6.5368 Y5.2284
G01 X6.5368 Y4.1518
G01 X9.2215 Y4.1518
G01 X9.2921 Y4.2065
G01 X9.3553 Y4.2403
G01 X9.4212 Y4.2638
G01 X9.4999 Y4.2789
G01 X10.8000 Y4.2815
G01 X10.8990 Y4.2712
G01 X10.9947 Y4.2403
G01 X11.0768 Y4.1939
G01 X11.1488 Y4.1318
G01 X13.4012 Y4.1318
G01 X13.4525 Y4.1785
G01 X13.5286 Y4.2276
G01 X13.6109 Y4.2610
G01 X13.6999 Y4.2789
G01 X15.1085 Y4.2778
G01 X15.1891 Y4.2610
G01 X15.2447 Y4.2403
G01 X15.3079 Y4.2065
G01 X15.3641 Y4.1648
G01 X15.4148 Y4.1141
G01 X15.4565 Y4.0579
G01 X15.5110 Y3.9391
G01 X15.5315 Y3.8000
G01 X15.5315 Y2.9750
G01 X15.5198 Y2.8700
G01 X15.4990 Y2.8013
G01 X15.4565 Y2.7171
G01 X15.4148 Y2.6609
G01 X15.3475 Y2.5965
G01 X15.2714 Y2.5474
G01 X15.2006 Y2.5178
G01 X15.1327 Y2.5008
G01 X15.0500 Y2.4935
G01 X13.6999 Y2.4961
G01 X13.6109 Y2.5140
G01 X13.5286 Y2.5474
G01 X13.4525 Y2.5965
G01 X13.3792 Y2.6682
G01 X11.1488 Y2.6682
G01 X11.0975 Y2.6215
G01 X11.0214 Y2.5724
G01 X10.9391 Y2.5390
G01 X10.8501 Y2.5211
G01 X9.5500 Y2.5185
G01 X9.4510 Y2.5288
G01 X9.3553 Y2.5597
G01 X9.2525 Y2.6215
G01 X9.1833 Y2.6882
G01 X1.2400 Y2.6884
G01 X1.1838 Y2.6954
G01 X1.1173 Y2.7236
G01 X1.0548 Y2.7811
G01 X1.0220 Y2.8418
G01 X1.0088 Y2.9082
G01 X1.0096 Y3.9430
G01 X1.0203 Y3.9932
G01 X1.0436 Y4.0427
G01 X1.0763 Y4.0837
G01 X1.1173 Y4.1164
G01 X1.1838 Y4.1446
G01 X1.2400 Y4.1516
G01 X5.0732 Y4.1518
G01 X5.0732 Y5.2282
G01 X1.7650 Y5.2282
G01 X1.6167 Y5.2434
G01 X1.2382 Y5.2438
G01 X1.1768 Y5.2553
G01 X1.1273 Y5.2786
G01 X1.0793 Y5.3185
G01 X1.0405 Y5.3764
G01 X1.0208 Y5.4419
G01 X1.0184 Y6.4750
G00 Z0.5000
G00 X1.2500 Y10.3184
G01 F60.00
G01 Z-0.0600
G01 F120.00
G01 X1.1718 Y10.3320
G01 X1.0935 Y10.3793
G01 X1.0405 Y10.4514
G01 X1.0188 Y10.5382
G01 X1.0208 Y11.5831
G01 X1.0405 Y11.6486
G01 X1.0793 Y11.7065
G01 X1.1298 Y11.7479
G01 X1.1938 Y11.7746
G01 X1.2500 Y11.7816
G01 X2.2831 Y11.7792
G01 X2.3486 Y11.7595
G01 X2.4137 Y11.7137
G01 X2.4595 Y11.6486
G01 X2.4793 Y11.5817
G01 X4.3224 Y11.5817
G01 X4.3521 Y11.6602
G01 X4.3935 Y11.7107
G01 X4.4560 Y11.7516
G01 X4.5382 Y11.7712
G01 X7.0600 Y11.7716
G01 X7.1332 Y11.7597
G01 X7.1986 Y11.7255
G01 X7.2452 Y11.6789
G01 X7.2780 Y11.6182
G01 X7.2904 Y11.5630
G01 X7.2916 Y10.5400
G01 X7.2797 Y10.4668
G01 X7.2564 Y10.4173
G01 X7.2165 Y10.3693
G01 X7.1586 Y10.3305
G01 X7.0931 Y10.3108
G01 X6.3367 Y10.3084
G01 X6.3367 Y9.0567
G01 X9.0869 Y9.0567
G01 X9.1435 Y9.1829
G01 X9.1852 Y9.2391
G01 X9.2359 Y9.2898
G01 X9.2921 Y9.3315
G01 X9.3553 Y9.3653
G01 X9.4673 Y9.3992
G01 X9.5500 Y9.4065
G01 X10.8000 Y9.4065
G01 X10.8827 Y9.3992
G01 X10.9506 Y9.3822
G01 X11.0579 Y9.3315
G01 X11.1405 Y9.2655
G01 X11.2191 Y9.1619
G01 X11.2638 Y9.0538
G01 X11.2815 Y8.9250
G01 X11.2789 Y8.0749
G01 X11.2610 Y7.9859
G01 X11.2191 Y7.8881
G01 X11.1648 Y7.8109
G01 X11.0975 Y7.7465
G01 X11.0214 Y7.6974
G01 X10.9288 Y7.6612
G01 X10.8359 Y7.6449
G01 X10.7067 Y7.6435
G01 X10.7067 Y7.3815
G01 X10.8359 Y7.3801
G01 X10.8990 Y7.3712
G01 X10.9737 Y7.3490
G01 X11.0579 Y7.3065
G01 X11.1141 Y7.2648
G01 X11.1785 Y7.1975
G01 X11.2276 Y7.1214
G01 X11.2631 Y7.0317
G01 X13.2806 Y7.0317
G01 X13.3010 Y7.0987
G01 X13.3309 Y7.1619
G01 X13.4095 Y7.2655
G01 X13.4732 Y7.3189
G01 X13.5286 Y7.3526
G01 X13.6510 Y7.3962
G01 X13.7500 Y7.4065
G01 X15.0500 Y7.4065
G01 X15.1891 Y7.3860
G01 X15.3079 Y7.3315
G01 X15.3983 Y7.2573
G01 X15.4776 Y7.1464
G01 X15.5212 Y7.0240
G01 X15.5315 Y6.9250
G01 X15.5315 Y6.1000
G01 X15.5110 Y5.9609
G01 X15.4776 Y5.8786
G01 X15.4439 Y5.8232
G01 X15.3983 Y5.7677
G01 X15.3475 Y5.7215
G01 X15.2869 Y5.6809
G01 X15.2237 Y5.6510
G01 X15.1490 Y5.6288
G01 X15.0859 Y5.6199
G01 X13.7500 Y5.6185
G01 X13.6510 Y5.6288
G01 X13.5286 Y5.6724
G01 X13.4177 Y5.7517
G01 X13.3435 Y5.8421
G01 X13.2869 Y5.9683
G01 X11.2631 Y5.9683
G01 X11.2065 Y5.8421
G01 X11.1648 Y5.7859
G01 X11.1141 Y5.7352
G01 X11.0579 Y5.6935
G01 X10.9947 Y5.6597
G01 X10.8827 Y5.6258
G01 X10.8000 Y5.6185
G01 X9.5500 Y5.6185
G01 X9.4109 Y5.6390
G01 X9.3131 Y5.6809
G01 X9.2095 Y5.7595
G01 X9.1309 Y5.8631
G01 X9.0862 Y5.9712
G01 X9.0685 Y6.1000
G01 X9.0711 Y6.9501
G01 X9.0890 Y7.0391
G01 X9.1309 Y7.1369
G01 X9.1852 Y7.2141
G01 X9.2525 Y7.2785
G01 X9.3286 Y7.3276
G01 X9.4212 Y7.3638
G01 X9.5141 Y7.3801
G01 X9.6433 Y7.3815
G01 X9.6433 Y7.6435
G01 X9.5141 Y7.6449
G01 X9.4510 Y7.6538
G01 X9.3763 Y7.6760
G01 X9.2921 Y7.7185
G01 X9.2359 Y7.7602
G01 X9.1715 Y7.8275
G01 X9.1224 Y7.9036
G01 X9.0869 Y7.9933
G01 X3.9814 Y7.9933
G01 X3.9616 Y7.9060
G01 X3.9207 Y7.8435
G01 X3.8486 Y7.7905
G01 X3.7730 Y7.7696
G01 X1.2400 Y7.7684
G01 X1.1668 Y7.7803
G01 X1.1173 Y7.8036
G01 X1.0693 Y7.8435
G01 X1.0305 Y7.9014
G01 X1.0108 Y7.9669
G01 X1.0084 Y9.0000
G01 X1.0203 Y9.0732
G01 X1.0545 Y9.1386
G01 X1.1014 Y9.1855
G01 X1.1668 Y9.2197
G01 X1.2400 Y9.2316
G01 X3.7618 Y9.2312
G01 X3.8282 Y9.2180
G01 X3.8889 Y9.1852
G01 X3.9464 Y9.1227
G01 X3.9745 Y9.0567
G01 X5.2733 Y9.0567
G01 X5.2733 Y10.3084
G01 X4.5500 Y10.3084
G01 X4.4998 Y10.3140
G01 X4.4298 Y10.3421
G01 X4.3793 Y10.3835
G01 X4.3384 Y10.4460
G01 X4.3195 Y10.5183
G01 X2.4793 Y10.5183
G01 X2.4595 Y10.4514
G01 X2.4137 Y10.3863
G01 X2.3486 Y10.3405
G01 X2.2831 Y10.3208
G01 X1.2500 Y10.3184
G00 Z0.5000
G00 X1.2500 Y10.4447
G01 F60.00
G01 Z-0.0600
G01 F120.00
G01 X1.2073 Y10.4538
G01 X1.1756 Y10.4756
G01 X1.1538 Y10.5073
G01 X1.1447 Y10.5500
G01 X1.1449 Y11.5554
G01 X1.1538 Y11.5927
G01 X1.1724 Y11.6211
G01 X1.2272 Y11.6527
G01 X2.2650 Y11.6542
G01 X2.3132 Y11.6342
G01 X2.3462 Y11.5927
G01 X2.3551 Y11.5554
G01 X2.3553 Y11.4554
G01 X4.4447 Y11.4554
G01 X4.4453 Y11.5505
G01 X4.4548 Y11.5848
G01 X4.4942 Y11.6293
G01 X4.5446 Y11.6451
G01 X7.0600 Y11.6453
G01 X7.0933 Y11.6398
G01 X7.1442 Y11.6032
G01 X7.1651 Y11.5454
G01 X7.1653 Y10.5400
G01 X7.1598 Y10.5067
G01 X7.1443 Y10.4770
G01 X7.1048 Y10.4448
G01 X7.0654 Y10.4349
G01 X6.2104 Y10.4347
G01 X6.2104 Y8.9304
G01 X9.1949 Y8.9304
G01 X9.2021 Y8.9966
G01 X9.2199 Y9.0561
G01 X9.2788 Y9.1543
G01 X9.3283 Y9.2025
G01 X9.3780 Y9.2358
G01 X9.4784 Y9.2729
G01 X9.5500 Y9.2802
G01 X10.8000 Y9.2802
G01 X10.9028 Y9.2650
G01 X10.9930 Y9.2231
G01 X11.0548 Y9.1725
G01 X11.1146 Y9.0899
G01 X11.1479 Y8.9966
G01 X11.1552 Y8.9250
G01 X11.1552 Y8.1250
G01 X11.1493 Y8.0608
G01 X11.1261 Y7.9843
G01 X11.0924 Y7.9234
G01 X11.0293 Y7.8538
G01 X10.9649 Y7.8104
G01 X10.9028 Y7.7850
G01 X10.8361 Y7.7716
G01 X10.5804 Y7.7698
G01 X10.5804 Y7.2553
G01 X10.8399 Y7.2529
G01 X10.9080 Y7.2383
G01 X10.9930 Y7.1981
G01 X11.0548 Y7.1475
G01 X11.1108 Y7.0720
G01 X11.1413 Y6.9981
G01 X11.1551 Y6.9054
G01 X13.3948 Y6.9054
G01 X13.3966 Y6.9611
G01 X13.4100 Y7.0278
G01 X13.4354 Y7.0899
G01 X13.4725 Y7.1467
G01 X13.5570 Y7.2231
G01 X13.6189 Y7.2551
G01 X13.6784 Y7.2729
G01 X13.7500 Y7.2802
G01 X15.0500 Y7.2802
G01 X15.1481 Y7.2663
G01 X15.2430 Y7.2231
G01 X15.3048 Y7.1725
G01 X15.3646 Y7.0899
G01 X15.3979 Y6.9966
G01 X15.4052 Y6.9250
G01 X15.4052 Y6.1000
G01 X15.3900 Y5.9972
G01 X15.3481 Y5.9070
G01 X15.2793 Y5.8288
G01 X15.1907 Y5.7739
G01 X15.1142 Y5.7507
G01 X15.0500 Y5.7448
G01 X13.7500 Y5.7448
G01 X13.6784 Y5.7521
G01 X13.6189 Y5.7699
G01 X13.5570 Y5.8019
G01 X13.4988 Y5.8488
G01 X13.4576 Y5.8984
G01 X13.4239 Y5.9593
G01 X13.4021 Y6.0284
G01 X13.3949 Y6.0946
G01 X11.1551 Y6.0946
G01 X11.1479 Y6.0284
G01 X11.1301 Y5.9689
G01 X11.0712 Y5.8707
G01 X11.0217 Y5.8225
G01 X10.9720 Y5.7892
G01 X10.8716 Y5.7521
G01 X10.8000 Y5.7448
G01 X9.5500 Y5.7448
G01 X9.4420 Y5.7617
G01 X9.3484 Y5.8076
G01 X9.2788 Y5.8707
G01 X9.2354 Y5.9351
G01 X9.2021 Y6.0284
G01 X9.1948 Y6.1000
G01 X9.1948 Y6.9000
G01 X9.2007 Y6.9642
G01 X9.2239 Y7.0407
G01 X9.2576 Y7.1016
G01 X9.3207 Y7.1712
G01 X9.3851 Y7.2146
G01 X9.4472 Y7.2400
G01 X9.5139 Y7.2534
G01 X9.7696 Y7.2552
G01 X9.7696 Y7.7697
G01 X9.5101 Y7.7721
G01 X9.4420 Y7.7867
G01 X9.3570 Y7.8269
G01 X9.2952 Y7.8775
G01 X9.2392 Y7.9530
G01 X9.2087 Y8.0269
G01 X9.1949 Y8.1196
G01 X3.8553 Y8.1196
G01 X3.8551 Y7.9946
G01 X3.8462 Y7.9573
G01 X3.8130 Y7.9157
G01 X3.7605 Y7.8953
G01 X1.2400 Y7.8947
G01 X1.2067 Y7.9002
G01 X1.1558 Y7.9368
G01 X1.1349 Y7.9946
G01 X1.1347 Y9.0000
G01 X1.1402 Y9.0333
G01 X1.1558 Y9.0632
G01 X1.1842 Y9.0893
G01 X1.2145 Y9.1021
G01 X3.7554 Y9.1051
G01 X3.8046 Y9.0900
G01 X3.8400 Y9.0546
G01 X3.8542 Y9.0150
G01 X3.8553 Y8.9304
G01 X5.3996 Y8.9304
G01 X5.3996 Y10.4347
G01 X4.5272 Y10.4373
G01 X4.4789 Y10.4624
G01 X4.4509 Y10.5045
G01 X4.4447 Y10.6446
G01 X2.3553 Y10.6446
G01 X2.3551 Y10.5446
G01 X2.3462 Y10.5073
G01 X2.3132 Y10.4658
G01 X2.2650 Y10.4458
G01 X1.2500 Y10.4447
G00 Z0.5000
G00 X1.2282 Y12.8488
G01 F60.00
G01 Z-0.0600
G01 F120.00
G01 X1.1414 Y12.8705
G01 X1.0693 Y12.9235
G01 X1.0220 Y13.0018
G01 X1.0084 Y13.0800
G01 X1.0108 Y14.1131
G01 X1.0305 Y14.1786
G01 X1.0763 Y14.2437
G01 X1.1414 Y14.2895
G01 X1.2069 Y14.3092
G01 X9.1950 Y14.3118
G01 X9.3266 Y14.2997
G01 X9.4854 Y14.2515
G01 X9.5956 Y14.1923
G01 X9.6679 Y14.1383
G01 X10.6925 Y13.1175
G01 X10.7873 Y13.0006
G01 X10.8488 Y12.8855
G01 X10.8917 Y12.7478
G01 X10.9041 Y12.6604
G01 X10.9068 Y12.4944
G01 X10.9737 Y12.4740
G01 X11.0369 Y12.4441
G01 X11.1405 Y12.3655
G01 X11.2191 Y12.2619
G01 X11.2638 Y12.1538
G01 X11.2815 Y12.0250
G01 X11.2815 Y11.2250
G01 X11.2742 Y11.1423
G01 X11.2572 Y11.0744
G01 X11.2276 Y11.0036
G01 X11.1939 Y10.9482
G01 X11.1405 Y10.8845
G01 X11.0768 Y10.8311
G01 X11.0214 Y10.7974
G01 X10.9506 Y10.7678
G01 X10.8827 Y10.7508
G01 X10.8000 Y10.7435
G01 X9.5141 Y10.7449
G01 X9.3994 Y10.7678
G01 X9.3286 Y10.7974
G01 X9.2732 Y10.8311
G01 X9.2095 Y10.8845
G01 X9.1435 Y10.9671
G01 X9.1010 Y11.0513
G01 X9.0758 Y11.1423
G01 X9.0685 Y11.2250
G01 X9.0685 Y12.0250
G01 X9.0862 Y12.1538
G01 X9.1309 Y12.2619
G01 X9.2095 Y12.3655
G01 X9.3024 Y12.4377
G01 X8.8919 Y12.8482
G01 X1.2282 Y12.8488
G00 Z0.5000
G00 X1.2346 Y12.9749
G01 F60.00
G01 Z-0.0600
G01 F120.00
G01 X1.1952 Y12.9848
G01 X1.1624 Y13.0089
G01 X1.1409 Y13.0445
G01 X1.1347 Y13.0800
G01 X1.1353 Y14.0905
G01 X1.1438 Y14.1227
G01 X1.1624 Y14.1511
G01 X1.1952 Y14.1752
G01 X1.2250 Y14.1842
G01 X9.1950 Y14.1855
G01 X9.3080 Y14.1747
G01 X9.4314 Y14.1373
G01 X9.5270 Y14.0862
G01 X9.5830 Y14.0447
G01 X10.6032 Y13.0282
G01 X10.6812 Y12.9320
G01 X10.7333 Y12.8342
G01 X10.7697 Y12.7130
G01 X10.7804 Y12.6052
G01 X10.7805 Y12.3802
G01 X10.8361 Y12.3784
G01 X10.9028 Y12.3650
G01 X11.0016 Y12.3174
G01 X11.0512 Y12.2762
G01 X11.0924 Y12.2266
G01 X11.1413 Y12.1231
G01 X11.1552 Y12.0250
G01 X11.1552 Y11.2250
G01 X11.1493 Y11.1608
G01 X11.1146 Y11.0601
G01 X11.0475 Y10.9702
G01 X11.0016 Y10.9326
G01 X10.9407 Y10.8989
G01 X10.8361 Y10.8716
G01 X9.5203 Y10.8711
G01 X9.4189 Y10.8949
G01 X9.3283 Y10.9475
G01 X9.2788 Y10.9957
G01 X9.2354 Y11.0601
G01 X9.2100 Y11.1222
G01 X9.1966 Y11.1889
G01 X9.1971 Y12.0649
G01 X9.2100 Y12.1278
G01 X9.2354 Y12.1899
G01 X9.3025 Y12.2798
G01 X9.3484 Y12.3174
G01 X9.4093 Y12.3511
G01 X9.4784 Y12.3729
G01 X9.5389 Y12.3798
G01 X8.9442 Y12.9745
G01 X1.2346 Y12.9749
G00 Z0.5000
M05
G00 Z0.5000
G00 Z15.00


