(G-code generated by FlatCAM Evo vUnstable - Version Date: 2023/6/31)

(Name: teszt5-F_Cu.gbr_iso_combined_ncc_cnc)
(Type: G-code from Geometry)
(Units: MM)

(Created on kedd, 16 január 2024 at 21:27)

(This preprocessor is the default preprocessor.)
(It is made to work with MACH3 compatible motion controllers.)

(TOOL DIAMETER: 2.4 mm)
(Feedrate_XY: 120.0 mm/min)
(Feedrate_Z: 60.0 mm/min)
(Feedrate rapids 1500.0 mm/min)

(Z_Cut: -0.05 mm)
(Z_Move: 0.5 mm)
(Z Start: None mm)
(Z End: 15.0 mm)
(X,Y End: None mm)
(Steps per circle: 16)
(Preprocessor Geometry: default)

(X range:    0.1500 ...   18.8500  mm)
(Y range:    0.1500 ...   16.8500  mm)

(Spindle Speed: 0.0 RPM)
G21
G90
G94

G01 F120.00
G00 Z0.5000

M03
G01 F120.00
G00 X0.2055 Y0.1500
G01 F60.00
G01 Z-0.0500
G01 F120.00
G01 X0.1500 Y0.2480
G01 X0.4468 Y0.1500
G01 X0.1500 Y0.6919
G00 Z0.5000
G00 X0.1500 Y1.1589
G01 F60.00
G01 Z-0.0500
G01 F120.00
G01 X0.4164 Y0.6295
G01 X0.6881 Y0.1500
G00 Z0.5000
G00 X0.9294 Y0.1500
G01 F60.00
G01 Z-0.0500
G01 F120.00
G01 X0.6016 Y0.7285
G01 X0.1500 Y1.6495
G00 Z0.5000
G00 X0.1500 Y2.1675
G01 F60.00
G01 Z-0.0500
G01 F120.00
G01 X0.4277 Y1.5410
G01 X0.7869 Y0.8275
G01 X1.1707 Y0.1500
G00 Z0.5000
G00 X1.4180 Y0.1500
G01 F60.00
G01 Z-0.0500
G01 F120.00
G01 X0.9721 Y0.9265
G01 X0.6175 Y1.6308
G01 X0.2980 Y2.3517
G01 X0.1500 Y2.7354
G00 Z0.5000
G00 X0.1500 Y3.3456
G01 F60.00
G01 Z-0.0500
G01 F120.00
G01 X0.4920 Y2.4321
G01 X0.8074 Y1.7206
G01 X1.1573 Y1.0255
G01 X1.6665 Y0.1500
G00 Z0.5000
G00 X1.9150 Y0.1500
G01 F60.00
G01 Z-0.0500
G01 F120.00
G01 X1.7210 Y0.4564
G01 X1.3425 Y1.1245
G01 X0.9972 Y1.8104
G01 X0.6860 Y2.5124
G01 X0.4097 Y3.2289
G01 X0.1500 Y4.0259
G01 X0.8595 Y3.8749
G01 X0.5751 Y4.8512
G01 X0.4136 Y5.5702
G01 X0.2876 Y6.2963
G01 X0.1974 Y7.0278
G01 X0.1500 Y7.6706
G01 X0.9886 Y7.7171
G01 X1.0704 Y6.8099
G00 Z0.5000
G00 X1.2762 Y6.8563
G01 F60.00
G01 Z-0.0500
G01 F120.00
G01 X1.2061 Y7.6220
G00 Z0.5000
G00 X1.4169 Y7.6185
G01 F60.00
G01 Z-0.0500
G01 F120.00
G01 X1.4877 Y6.8563
G00 Z0.5000
G00 X1.6993 Y6.8564
G01 F60.00
G01 Z-0.0500
G01 F120.00
G01 X1.6274 Y7.6186
G00 Z0.5000
G00 X1.8379 Y7.6187
G01 F60.00
G01 Z-0.0500
G01 F120.00
G01 X1.9108 Y6.8564
G00 Z0.5000
G00 X2.1223 Y6.8565
G01 F60.00
G01 Z-0.0500
G01 F120.00
G01 X2.0484 Y7.6188
G01 X2.2589 Y7.6189
G01 X2.3354 Y6.8435
G01 X2.5472 Y6.8415
G01 X2.4694 Y7.6190
G01 X2.6799 Y7.6191
G01 X2.7588 Y6.8412
G00 Z0.5000
G00 X2.9703 Y6.8408
G01 F60.00
G01 Z-0.0500
G01 F120.00
G01 X2.8904 Y7.6192
G01 X3.1009 Y7.6193
G01 X3.1819 Y6.8405
G00 Z0.5000
G00 X3.3935 Y6.8402
G01 F60.00
G01 Z-0.0500
G01 F120.00
G01 X3.3114 Y7.6194
G01 X3.5219 Y7.6195
G01 X3.6050 Y6.8399
G00 Z0.5000
G00 X3.8166 Y6.8396
G01 F60.00
G01 Z-0.0500
G01 F120.00
G01 X3.7324 Y7.6196
G00 Z0.5000
G00 X3.9391 Y7.6709
G01 F60.00
G01 Z-0.0500
G01 F120.00
G01 X4.0288 Y6.8393
G01 X4.2419 Y6.8389
G01 X4.1682 Y7.4189
G01 X4.1369 Y7.8433
G00 Z0.5000
G00 X4.3474 Y7.8433
G01 F60.00
G01 Z-0.0500
G01 F120.00
G01 X4.3772 Y7.4394
G01 X4.4550 Y6.8386
G01 X4.6681 Y6.8383
G01 X4.5862 Y7.4600
G01 X4.5579 Y7.8433
G00 Z0.5000
G00 X4.7684 Y7.8433
G01 F60.00
G01 Z-0.0500
G01 F120.00
G01 X4.7952 Y7.4806
G01 X4.8813 Y6.8380
G01 X5.0944 Y6.8377
G01 X5.0042 Y7.5012
G01 X4.9789 Y7.8433
G00 Z0.5000
G00 X5.1894 Y7.8433
G01 F60.00
G01 Z-0.0500
G01 F120.00
G01 X5.2132 Y7.5218
G01 X5.3075 Y6.8373
G00 Z0.5000
G00 X5.5207 Y6.8370
G01 F60.00
G01 Z-0.0500
G01 F120.00
G01 X5.4221 Y7.5424
G01 X5.3999 Y7.8433
G00 Z0.5000
G00 X5.6104 Y7.8433
G01 F60.00
G01 Z-0.0500
G01 F120.00
G01 X5.6311 Y7.5629
G01 X5.7338 Y6.8367
G00 Z0.5000
G00 X5.9469 Y6.8364
G01 F60.00
G01 Z-0.0500
G01 F120.00
G01 X5.8963 Y7.1283
G01 X5.8210 Y7.8433
G00 Z0.5000
G00 X6.0315 Y7.8433
G01 F60.00
G01 Z-0.0500
G01 F120.00
G01 X6.1040 Y7.1591
G01 X6.1600 Y6.8361
G00 Z0.5000
G00 X6.3732 Y6.8357
G01 F60.00
G01 Z-0.0500
G01 F120.00
G01 X6.3117 Y7.1899
G01 X6.2420 Y7.8433
G00 Z0.5000
G00 X6.4525 Y7.8433
G01 F60.00
G01 Z-0.0500
G01 F120.00
G01 X6.5194 Y7.2207
G01 X6.5863 Y6.8354
G00 Z0.5000
G00 X6.7997 Y6.8351
G01 F60.00
G01 Z-0.0500
G01 F120.00
G01 X6.7272 Y7.2516
G01 X6.6630 Y7.8433
G00 Z0.5000
G00 X6.8735 Y7.8433
G01 F60.00
G01 Z-0.0500
G01 F120.00
G01 X6.9349 Y7.2824
G01 X7.0149 Y6.8348
G00 Z0.5000
G00 X7.2414 Y6.7847
G01 F60.00
G01 Z-0.0500
G01 F120.00
G01 X7.1426 Y7.3132
G01 X7.0840 Y7.8433
G00 Z0.5000
G00 X7.2945 Y7.8433
G01 F60.00
G01 Z-0.0500
G01 F120.00
G01 X7.3504 Y7.3440
G01 X7.4164 Y6.9632
G01 X7.5011 Y6.5860
G01 X7.7255 Y5.8465
G01 X8.0212 Y5.1325
G01 X8.1950 Y4.7873
G01 X8.4799 Y4.3018
G01 X8.2315 Y4.3018
G01 X8.2054 Y4.3430
G01 X7.8314 Y5.0427
G01 X7.6706 Y5.4055
G01 X7.4379 Y6.0477
G01 X7.4361 Y5.4300
G01 X7.6415 Y4.9529
G01 X7.9874 Y4.3018
G00 Z0.5000
G00 X7.7461 Y4.3018
G01 F60.00
G01 Z-0.0500
G01 F120.00
G01 X7.4517 Y4.8631
G01 X7.3131 Y5.1758
G00 Z0.5000
G00 X7.1235 Y5.0856
G01 F60.00
G01 Z-0.0500
G01 F120.00
G01 X7.2619 Y4.7734
G01 X7.5049 Y4.3018
G00 Z0.5000
G00 X7.2642 Y4.3018
G01 F60.00
G01 Z-0.0500
G01 F120.00
G01 X7.0720 Y4.6836
G01 X6.8951 Y5.0827
G01 X6.6868 Y5.0392
G01 X6.8822 Y4.5938
G01 X7.0292 Y4.3018
G00 Z0.5000
G00 X6.7941 Y4.3018
G01 F60.00
G01 Z-0.0500
G01 F120.00
G01 X6.6868 Y4.5165
G00 Z0.5000
G00 X4.9232 Y4.3612
G01 F60.00
G01 Z-0.0500
G01 F120.00
G01 X4.6628 Y5.0782
G00 Z0.5000
G00 X4.8839 Y5.0782
G01 F60.00
G01 Z-0.0500
G01 F120.00
G01 X4.9232 Y4.9593
G01 X4.4417 Y5.0782
G01 X4.5619 Y4.7145
G01 X4.7211 Y4.3018
G01 X4.4961 Y4.3018
G01 X4.2206 Y5.0782
G00 Z0.5000
G00 X3.9995 Y5.0782
G01 F60.00
G01 Z-0.0500
G01 F120.00
G01 X4.2711 Y4.3017
G01 X4.0461 Y4.3017
G01 X3.7797 Y5.0782
G00 Z0.5000
G00 X3.5619 Y5.0782
G01 F60.00
G01 Z-0.0500
G01 F120.00
G01 X3.8211 Y4.3017
G01 X3.5960 Y4.3017
G01 X3.3440 Y5.0782
G00 Z0.5000
G00 X3.1262 Y5.0782
G01 F60.00
G01 Z-0.0500
G01 F120.00
G01 X3.3717 Y4.3017
G00 Z0.5000
G00 X3.1506 Y4.3017
G01 F60.00
G01 Z-0.0500
G01 F120.00
G01 X2.9084 Y5.0782
G00 Z0.5000
G00 X2.6905 Y5.0782
G01 F60.00
G01 Z-0.0500
G01 F120.00
G01 X2.9295 Y4.3017
G00 Z0.5000
G00 X2.7084 Y4.3016
G01 F60.00
G01 Z-0.0500
G01 F120.00
G01 X2.4727 Y5.0782
G00 Z0.5000
G00 X2.2549 Y5.0782
G01 F60.00
G01 Z-0.0500
G01 F120.00
G01 X2.4873 Y4.3016
G01 X2.2662 Y4.3016
G01 X2.0371 Y5.0782
G00 Z0.5000
G00 X1.8192 Y5.0782
G01 F60.00
G01 Z-0.0500
G01 F120.00
G01 X2.0451 Y4.3016
G00 Z0.5000
G00 X1.8240 Y4.3016
G01 F60.00
G01 Z-0.0500
G01 F120.00
G01 X1.5993 Y5.0857
G00 Z0.5000
G00 X1.3808 Y5.0958
G01 F60.00
G01 Z-0.0500
G01 F120.00
G01 X1.6030 Y4.3016
G00 Z0.5000
G00 X1.3819 Y4.3016
G01 F60.00
G01 Z-0.0500
G01 F120.00
G01 X1.1634 Y5.1059
G00 Z0.5000
G00 X0.8979 Y5.3300
G01 F60.00
G01 Z-0.0500
G01 F120.00
G01 X0.9825 Y4.9532
G01 X1.1670 Y4.2867
G00 Z0.5000
G00 X0.9771 Y4.1883
G01 F60.00
G01 Z-0.0500
G01 F120.00
G01 X0.7788 Y4.9022
G01 X0.6196 Y5.6112
G01 X0.4954 Y6.3272
G01 X0.4064 Y7.0484
G01 X0.3530 Y7.7731
G01 X0.3351 Y8.4995
G01 X0.3530 Y9.2259
G01 X0.4064 Y9.9506
G01 X0.4954 Y10.6718
G01 X0.6196 Y11.3878
G01 X0.7788 Y12.0968
G01 X0.9757 Y12.8064
G00 Z0.5000
G00 X1.1638 Y12.7072
G01 F60.00
G01 Z-0.0500
G01 F120.00
G01 X8.8297 Y12.6982
G01 X9.0821 Y12.4458
G01 X9.0028 Y12.3398
G01 X8.9476 Y12.2112
G01 X8.9198 Y12.0454
G01 X8.9260 Y11.1333
G01 X9.0169 Y10.8867
G01 X9.1956 Y10.7028
G01 X9.3278 Y10.6341
G01 X9.5080 Y10.5951
G01 X10.9107 Y10.6034
G01 X11.0904 Y10.6642
G01 X11.2466 Y10.7784
G01 X11.3608 Y10.9346
G01 X11.4222 Y11.1174
G01 X11.4315 Y12.0238
G01 X11.4096 Y12.1893
G01 X11.3511 Y12.3332
G01 X11.2513 Y12.4666
G01 X11.1219 Y12.5677
G01 X11.0508 Y12.5995
G01 X11.0349 Y12.7925
G01 X10.9871 Y12.9434
G01 X10.9123 Y13.0836
G01 X10.7983 Y13.2237
G01 X9.7629 Y14.2543
G01 X9.5782 Y14.3725
G01 X9.3613 Y14.4456
G01 X9.2019 Y14.4616
G01 X1.2069 Y14.4592
G01 X1.0917 Y14.4310
G01 X0.9580 Y14.3359
G01 X0.8941 Y14.2410
G01 X0.8610 Y14.1207
G01 X0.8585 Y13.0803
G01 X0.8756 Y12.9693
G01 X0.9690 Y12.8120
G01 X1.0711 Y12.7380
G01 X1.0913 Y12.7291
G01 X1.0983 Y12.7268
G01 X1.1638 Y12.7072
G01 X1.1654 Y12.7067
G01 X0.9825 Y12.0458
G01 X0.9099 Y11.7222
G00 Z0.5000
G00 X0.8708 Y11.5481
G01 F60.00
G01 Z-0.0500
G01 F120.00
G01 X0.7031 Y10.6410
G01 X0.6154 Y9.9301
G01 X0.5627 Y9.2156
G01 X0.5451 Y8.4995
G01 X0.5627 Y7.7834
G01 X0.6154 Y7.0689
G01 X0.7031 Y6.3580
G01 X0.8708 Y5.4506
G01 X0.1500 Y5.8616
G01 X0.2077 Y5.5293
G01 X0.3714 Y4.8001
G01 X0.5707 Y4.0799
G01 X0.8590 Y3.2306
G00 Z0.5000
G00 X1.1254 Y2.5572
G01 F60.00
G01 Z-0.0500
G01 F120.00
G01 X1.3769 Y1.9900
G01 X1.7129 Y1.3225
G01 X2.0812 Y0.6723
G01 X2.4119 Y0.1500
G00 Z0.5000
G00 X2.1634 Y0.1500
G01 F60.00
G01 Z-0.0500
G01 F120.00
G01 X1.9011 Y0.5643
G01 X1.5277 Y1.2235
G01 X1.1870 Y1.9002
G01 X0.8800 Y2.5928
G01 X0.6074 Y3.2996
G01 X0.3697 Y4.0190
G01 X0.1500 Y4.8279
G01 X0.8750 Y6.5380
G01 X0.8737 Y5.4129
G01 X0.9049 Y5.3123
G01 X0.9638 Y5.2228
G01 X1.1275 Y5.1137
G01 X1.7650 Y5.0782
G01 X4.9232 Y5.0782
G01 X4.9232 Y4.3018
G01 X1.2400 Y4.3015
G01 X1.0347 Y4.2416
G01 X0.9184 Y4.1253
G01 X0.8611 Y3.9642
G01 X0.8595 Y2.8935
G01 X0.8836 Y2.7841
G01 X0.9432 Y2.6808
G01 X1.0391 Y2.5956
G01 X1.1612 Y2.5471
G01 X9.1227 Y2.5383
G01 X9.3027 Y2.4192
G01 X9.4200 Y2.3820
G01 X9.5503 Y2.3685
G01 X10.8648 Y2.3718
G01 X11.0787 Y2.4338
G01 X11.1989 Y2.5182
G01 X13.3261 Y2.5182
G01 X13.4651 Y2.4115
G01 X13.6852 Y2.3468
G01 X15.0659 Y2.3443
G01 X15.2520 Y2.3768
G01 X15.4370 Y2.4761
G01 X15.5822 Y2.6353
G01 X15.6536 Y2.7918
G01 X15.6815 Y2.9750
G01 X15.6815 Y3.8000
G01 X15.6582 Y3.9680
G01 X15.5826 Y4.1391
G01 X15.4620 Y4.2785
G01 X15.3053 Y4.3775
G01 X15.1166 Y4.4276
G01 X13.6855 Y4.4282
G01 X13.4713 Y4.3662
G01 X13.3511 Y4.2818
G01 X11.1963 Y4.2818
G01 X11.0479 Y4.3805
G01 X10.9300 Y4.4180
G01 X10.7997 Y4.4315
G01 X9.4841 Y4.4281
G01 X9.2970 Y4.3785
G01 X9.1764 Y4.3018
G01 X6.6868 Y4.3018
G01 X6.6868 Y5.0802
G01 X7.1696 Y5.0952
G01 X7.3331 Y5.1936
G01 X7.4330 Y5.3796
G01 X7.4364 Y6.5219
G01 X7.4051 Y6.6227
G01 X7.3416 Y6.7174
G01 X7.1454 Y6.8318
G01 X1.2311 Y6.8561
G01 X1.0999 Y6.8257
G01 X0.9932 Y6.7572
G01 X0.9073 Y6.6426
G01 X0.8750 Y6.5380
G00 Z0.5000
G00 X0.8870 Y6.5815
G01 F60.00
G01 Z-0.0500
G01 F120.00
G01 X0.8244 Y7.0895
G01 X0.7724 Y7.7937
G01 X0.7551 Y8.4995
G01 X0.7724 Y9.2053
G01 X0.8244 Y9.9095
G01 X0.8892 Y10.4350
G00 Z0.5000
G00 X1.0734 Y10.2132
G01 F60.00
G01 Z-0.0500
G01 F120.00
G01 X1.0334 Y9.8889
G01 X0.9888 Y9.2850
G00 Z0.5000
G00 X1.2062 Y9.3780
G01 F60.00
G01 Z-0.0500
G01 F120.00
G01 X1.2794 Y10.1688
G00 Z0.5000
G00 X1.2033 Y10.1729
G01 F60.00
G01 Z-0.0500
G01 F120.00
G01 X2.3050 Y10.1724
G01 X2.4349 Y10.2178
G01 X2.5224 Y10.2829
G01 X2.5843 Y10.3683
G01 X4.2101 Y10.3683
G01 X4.2677 Y10.2833
G01 X4.3347 Y10.2261
G01 X4.4639 Y10.1683
G01 X5.1233 Y10.1595
G01 X5.1233 Y9.2067
G01 X4.0706 Y9.2067
G01 X3.9663 Y9.3138
G01 X3.8790 Y9.3591
G01 X3.7692 Y9.3811
G01 X1.2400 Y9.3815
G01 X1.1098 Y9.3584
G01 X1.0127 Y9.3064
G01 X0.9432 Y9.2391
G01 X0.8723 Y9.0973
G01 X0.8585 Y8.9997
G01 X0.8608 Y7.9666
G01 X0.8918 Y7.8442
G01 X0.9538 Y7.7478
G01 X1.1276 Y7.6355
G01 X1.2401 Y7.6185
G01 X3.7812 Y7.6198
G01 X3.9375 Y7.6697
G01 X4.0322 Y7.7432
G01 X4.0979 Y7.8433
G01 X8.9951 Y7.8433
G01 X9.0549 Y7.7332
G01 X9.1972 Y7.6024
G01 X9.4008 Y7.5124
G01 X9.1488 Y7.3869
G01 X9.0078 Y7.2226
G01 X8.9458 Y7.0837
G01 X8.9211 Y6.9505
G01 X8.9185 Y6.1005
G01 X8.9404 Y5.9357
G01 X9.0028 Y5.7852
G01 X9.1189 Y5.6400
G01 X9.2345 Y5.5531
G01 X9.3518 Y5.5011
G01 X9.5356 Y5.4691
G01 X10.9123 Y5.4787
G01 X11.0607 Y5.5250
G01 X11.2063 Y5.6168
G01 X11.3246 Y5.7496
G01 X11.3602 Y5.8183
G01 X13.1898 Y5.8183
G01 X13.2227 Y5.7532
G01 X13.3242 Y5.6344
G01 X13.4591 Y5.5395
G01 X13.6214 Y5.4817
G01 X15.0986 Y5.4705
G01 X15.2779 Y5.5111
G01 X15.4401 Y5.6035
G01 X15.5671 Y5.7377
G01 X15.6543 Y5.9165
G01 X15.6815 Y6.1017
G01 X15.6666 Y7.0608
G01 X15.6105 Y7.2159
G01 X15.5105 Y7.3568
G01 X15.3842 Y7.4607
G01 X15.2318 Y7.5298
G01 X15.0489 Y7.5565
G01 X13.6284 Y7.5445
G01 X13.4584 Y7.4852
G01 X13.3152 Y7.3822
G01 X13.2073 Y7.2469
G01 X13.1778 Y7.1817
G01 X11.3549 Y7.1817
G01 X11.2951 Y7.2918
G01 X11.1528 Y7.4226
G01 X10.9492 Y7.5126
G01 X11.1842 Y7.6241
G01 X11.3329 Y7.7904
G01 X11.4042 Y7.9413
G01 X11.4289 Y8.0745
G01 X11.4314 Y8.9315
G01 X11.4076 Y9.0968
G01 X11.3472 Y9.2398
G01 X11.2505 Y9.3675
G01 X11.1403 Y9.4568
G01 X11.0017 Y9.5233
G01 X10.7992 Y9.5565
G01 X9.4448 Y9.5476
G01 X9.2893 Y9.5000
G01 X9.1437 Y9.4082
G01 X9.0254 Y9.2754
G01 X8.9898 Y9.2067
G01 X6.4867 Y9.2067
G01 X6.4867 Y10.1589
G01 X7.1362 Y10.1672
G01 X7.2294 Y10.1982
G01 X7.3179 Y10.2588
G01 X7.4245 Y10.4276
G01 X7.4415 Y10.5402
G01 X7.4378 Y11.5908
G01 X7.3616 Y11.7736
G01 X7.2873 Y11.8465
G01 X7.1773 Y11.9030
G01 X7.0600 Y11.9215
G01 X4.5312 Y11.9211
G01 X4.3800 Y11.8810
G01 X4.2933 Y11.8223
G01 X4.2202 Y11.7317
G01 X2.5843 Y11.7317
G01 X2.5224 Y11.8171
G01 X2.4349 Y11.8822
G01 X2.3046 Y11.9276
G01 X1.1503 Y11.9182
G01 X0.9684 Y11.8074
G01 X0.9049 Y11.7127
G01 X0.8737 Y11.6122
G01 X0.8689 Y10.5314
G01 X0.8998 Y10.3987
G01 X0.9775 Y10.2830
G01 X1.0915 Y10.2030
G01 X1.2033 Y10.1729
G00 Z0.5000
G00 X1.4910 Y10.1693
G01 F60.00
G01 Z-0.0500
G01 F120.00
G01 X1.4170 Y9.3815
G00 Z0.5000
G00 X1.6275 Y9.3815
G01 F60.00
G01 Z-0.0500
G01 F120.00
G01 X1.7026 Y10.1697
G00 Z0.5000
G00 X1.9142 Y10.1701
G01 F60.00
G01 Z-0.0500
G01 F120.00
G01 X1.8380 Y9.3815
G00 Z0.5000
G00 X2.0485 Y9.3815
G01 F60.00
G01 Z-0.0500
G01 F120.00
G01 X2.1257 Y10.1705
G00 Z0.5000
G00 X2.3386 Y10.1809
G01 F60.00
G01 Z-0.0500
G01 F120.00
G01 X2.2590 Y9.3814
G00 Z0.5000
G00 X2.4695 Y9.3814
G01 F60.00
G01 Z-0.0500
G01 F120.00
G01 X2.4963 Y9.7448
G01 X2.5708 Y10.3489
G01 X2.7865 Y10.3683
G01 X2.7053 Y9.7242
G01 X2.6800 Y9.3814
G01 X2.8905 Y9.3814
G01 X2.9143 Y9.7036
G01 X2.9996 Y10.3683
G01 X3.2126 Y10.3683
G01 X3.1233 Y9.6831
G01 X3.1010 Y9.3813
G00 Z0.5000
G00 X3.3115 Y9.3813
G01 F60.00
G01 Z-0.0500
G01 F120.00
G01 X3.3323 Y9.6625
G01 X3.4257 Y10.3683
G00 Z0.5000
G00 X3.6388 Y10.3683
G01 F60.00
G01 Z-0.0500
G01 F120.00
G01 X3.5412 Y9.6419
G01 X3.5220 Y9.3813
G00 Z0.5000
G00 X3.7325 Y9.3813
G01 F60.00
G01 Z-0.0500
G01 F120.00
G01 X3.7502 Y9.6213
G01 X3.8519 Y10.3683
G00 Z0.5000
G00 X4.0649 Y10.3683
G01 F60.00
G01 Z-0.0500
G01 F120.00
G01 X3.9592 Y9.6007
G01 X3.9391 Y9.3286
G00 Z0.5000
G00 X4.1407 Y9.2067
G01 F60.00
G01 Z-0.0500
G01 F120.00
G01 X4.1682 Y9.5801
G01 X4.2640 Y10.2876
G00 Z0.5000
G00 X4.4567 Y10.1703
G01 F60.00
G01 Z-0.0500
G01 F120.00
G01 X4.3772 Y9.5596
G01 X4.3512 Y9.2067
G00 Z0.5000
G00 X4.5617 Y9.2067
G01 F60.00
G01 Z-0.0500
G01 F120.00
G01 X4.5862 Y9.5390
G01 X4.6685 Y10.1628
G00 Z0.5000
G00 X4.8813 Y10.1612
G01 F60.00
G01 Z-0.0500
G01 F120.00
G01 X4.7952 Y9.5184
G01 X4.7722 Y9.2067
G01 X4.9827 Y9.2067
G01 X5.0042 Y9.4978
G01 X5.0941 Y10.1597
G00 Z0.5000
G00 X6.5856 Y10.1592
G01 F60.00
G01 Z-0.0500
G01 F120.00
G01 X6.4867 Y9.5128
G01 X6.6667 Y9.2067
G01 X6.7272 Y9.7474
G01 X6.7988 Y10.1599
G00 Z0.5000
G00 X7.0141 Y10.1606
G01 F60.00
G01 Z-0.0500
G01 F120.00
G01 X6.9349 Y9.7166
G01 X6.8773 Y9.2067
G01 X7.0878 Y9.2067
G01 X7.1426 Y9.6858
G01 X7.2390 Y10.2039
G00 Z0.5000
G00 X7.4411 Y10.9609
G01 F60.00
G01 Z-0.0500
G01 F120.00
G01 X7.6706 Y11.5935
G01 X7.8314 Y11.9563
G01 X8.0098 Y12.3107
G01 X8.2322 Y12.6984
G00 Z0.5000
G00 X7.9882 Y12.6985
G01 F60.00
G01 Z-0.0500
G01 F120.00
G01 X7.6415 Y12.0461
G01 X7.4396 Y11.5781
G00 Z0.5000
G00 X7.3131 Y11.8231
G01 F60.00
G01 Z-0.0500
G01 F120.00
G01 X7.4517 Y12.1359
G01 X7.7469 Y12.6986
G00 Z0.5000
G00 X7.5057 Y12.6987
G01 F60.00
G01 Z-0.0500
G01 F120.00
G01 X7.2619 Y12.2256
G01 X7.1234 Y11.9132
G00 Z0.5000
G00 X6.8974 Y11.9215
G01 F60.00
G01 Z-0.0500
G01 F120.00
G01 X7.0720 Y12.3154
G01 X7.2650 Y12.6988
G01 X7.0300 Y12.6988
G01 X6.8822 Y12.4052
G01 X6.6720 Y11.9215
G00 Z0.5000
G00 X6.4470 Y11.9215
G01 F60.00
G01 Z-0.0500
G01 F120.00
G01 X6.6923 Y12.4950
G01 X6.7950 Y12.6989
G00 Z0.5000
G00 X6.5600 Y12.6990
G01 F60.00
G01 Z-0.0500
G01 F120.00
G01 X6.3125 Y12.1560
G01 X6.2220 Y11.9215
G00 Z0.5000
G00 X5.9969 Y11.9214
G01 F60.00
G01 Z-0.0500
G01 F120.00
G01 X6.1184 Y12.2364
G01 X6.3250 Y12.6991
G00 Z0.5000
G00 X6.0939 Y12.6992
G01 F60.00
G01 Z-0.0500
G01 F120.00
G01 X5.9244 Y12.3168
G01 X5.7719 Y11.9214
G01 X5.5474 Y11.9214
G01 X5.7304 Y12.3971
G01 X5.8643 Y12.6992
G01 X5.6347 Y12.6993
G01 X5.3263 Y11.9213
G00 Z0.5000
G00 X5.1052 Y11.9213
G01 F60.00
G01 Z-0.0500
G01 F120.00
G01 X5.4051 Y12.6994
G00 Z0.5000
G00 X5.1755 Y12.6995
G01 F60.00
G01 Z-0.0500
G01 F120.00
G01 X4.8841 Y11.9213
G00 Z0.5000
G00 X4.6630 Y11.9213
G01 F60.00
G01 Z-0.0500
G01 F120.00
G01 X4.9470 Y12.6995
G01 X4.7220 Y12.6996
G01 X4.5619 Y12.2845
G01 X4.4351 Y11.9008
G00 Z0.5000
G00 X4.1630 Y11.7317
G01 F60.00
G01 Z-0.0500
G01 F120.00
G01 X4.3641 Y12.3552
G01 X4.4970 Y12.6997
G00 Z0.5000
G00 X4.2720 Y12.6998
G01 F60.00
G01 Z-0.0500
G01 F120.00
G01 X4.1664 Y12.4260
G01 X3.9452 Y11.7317
G00 Z0.5000
G00 X3.7273 Y11.7317
G01 F60.00
G01 Z-0.0500
G01 F120.00
G01 X3.7860 Y11.9437
G01 X4.0471 Y12.6999
G01 X3.8221 Y12.6999
G01 X3.5851 Y12.0047
G01 X3.5095 Y11.7317
G00 Z0.5000
G00 X3.2917 Y11.7317
G01 F60.00
G01 Z-0.0500
G01 F120.00
G01 X3.3841 Y12.0656
G01 X3.5971 Y12.7000
G00 Z0.5000
G00 X3.3726 Y12.7001
G01 F60.00
G01 Z-0.0500
G01 F120.00
G01 X3.1832 Y12.1266
G01 X3.0739 Y11.7317
G01 X2.8560 Y11.7317
G01 X2.9822 Y12.1876
G01 X3.1515 Y12.7002
G00 Z0.5000
G00 X2.9305 Y12.7002
G01 F60.00
G01 Z-0.0500
G01 F120.00
G01 X2.7812 Y12.2485
G01 X2.6382 Y11.7317
G00 Z0.5000
G00 X2.4576 Y11.8662
G01 F60.00
G01 Z-0.0500
G01 F120.00
G01 X2.5803 Y12.3095
G01 X2.7094 Y12.7003
G00 Z0.5000
G00 X2.4883 Y12.7004
G01 F60.00
G01 Z-0.0500
G01 F120.00
G01 X2.2572 Y11.9291
G01 X2.0391 Y11.9282
G01 X2.2672 Y12.7005
G01 X2.0462 Y12.7005
G01 X1.8210 Y11.9273
G01 X1.6029 Y11.9263
G01 X1.8251 Y12.7006
G00 Z0.5000
G00 X1.6040 Y12.7007
G01 F60.00
G01 Z-0.0500
G01 F120.00
G01 X1.3858 Y11.9254
G00 Z0.5000
G00 X1.1700 Y11.9227
G01 F60.00
G01 Z-0.0500
G01 F120.00
G01 X1.3830 Y12.7008
G00 Z0.5000
G00 X0.8585 Y13.1211
G01 F60.00
G01 Z-0.0500
G01 F120.00
G01 X0.5751 Y12.1478
G01 X0.4136 Y11.4288
G01 X0.2876 Y10.7027
G01 X0.1974 Y9.9712
G01 X0.1500 Y9.3284
G00 Z0.5000
G00 X0.1500 Y11.1374
G01 F60.00
G01 Z-0.0500
G01 F120.00
G01 X0.2077 Y11.4698
G01 X0.3714 Y12.1989
G01 X0.5707 Y12.9191
G01 X0.8600 Y13.7710
G01 X0.1500 Y13.6534
G01 X0.4920 Y14.5669
G01 X0.8074 Y15.2784
G01 X1.1573 Y15.9735
G01 X1.6671 Y16.8500
G01 X1.4186 Y16.8500
G01 X1.3607 Y16.7586
G01 X0.9721 Y16.0725
G01 X0.6175 Y15.3682
G01 X0.2980 Y14.6473
G01 X0.1500 Y14.2636
G00 Z0.5000
G00 X0.1500 Y14.8315
G01 F60.00
G01 Z-0.0500
G01 F120.00
G01 X0.4277 Y15.4580
G01 X0.7869 Y16.1715
G01 X1.1712 Y16.8500
G00 Z0.5000
G00 X0.9299 Y16.8500
G01 F60.00
G01 Z-0.0500
G01 F120.00
G01 X0.6016 Y16.2705
G01 X0.1500 Y15.3495
G00 Z0.5000
G00 X0.1500 Y15.8401
G01 F60.00
G01 Z-0.0500
G01 F120.00
G01 X0.4164 Y16.3695
G01 X0.6887 Y16.8500
G00 Z0.5000
G00 X0.4474 Y16.8500
G01 F60.00
G01 Z-0.0500
G01 F120.00
G01 X0.1500 Y16.3071
G00 Z0.5000
G00 X0.1500 Y16.7510
G01 F60.00
G01 Z-0.0500
G01 F120.00
G01 X0.2061 Y16.8500
G00 Z0.5000
G00 X1.9156 Y16.8500
G01 F60.00
G01 Z-0.0500
G01 F120.00
G01 X1.7210 Y16.5426
G01 X1.3425 Y15.8745
G01 X0.9972 Y15.1886
G01 X0.6860 Y14.4866
G01 X0.4097 Y13.7701
G01 X0.1500 Y12.9731
G00 Z0.5000
G00 X0.1500 Y12.1711
G01 F60.00
G01 Z-0.0500
G01 F120.00
G01 X0.3697 Y12.9800
G01 X0.6074 Y13.6994
G01 X0.8800 Y14.4062
G01 X1.1870 Y15.0988
G01 X1.5277 Y15.7755
G01 X1.9011 Y16.4347
G01 X2.1641 Y16.8500
G00 Z0.5000
G00 X2.4126 Y16.8500
G01 F60.00
G01 Z-0.0500
G01 F120.00
G01 X2.0812 Y16.3267
G01 X1.7129 Y15.6765
G01 X1.3769 Y15.0090
G01 X1.1252 Y14.4413
G00 Z0.5000
G00 X1.3628 Y14.4592
G01 F60.00
G01 Z-0.0500
G01 F120.00
G01 X1.5667 Y14.9192
G01 X1.8981 Y15.5775
G01 X2.2613 Y16.2188
G01 X2.6617 Y16.8500
G00 Z0.5000
G00 X2.9184 Y16.8500
G01 F60.00
G01 Z-0.0500
G01 F120.00
G01 X2.4414 Y16.1108
G01 X2.0833 Y15.4785
G01 X1.7566 Y14.8295
G01 X1.5925 Y14.4593
G00 Z0.5000
G00 X1.8222 Y14.4594
G01 F60.00
G01 Z-0.0500
G01 F120.00
G01 X1.9464 Y14.7397
G01 X2.2685 Y15.3795
G01 X2.6216 Y16.0028
G01 X3.0048 Y16.6080
G01 X3.1752 Y16.8500
G00 Z0.5000
G00 X3.4320 Y16.8500
G01 F60.00
G01 Z-0.0500
G01 F120.00
G01 X3.1794 Y16.4914
G01 X2.8017 Y15.8949
G01 X2.4537 Y15.2805
G01 X2.0518 Y14.4595
G00 Z0.5000
G00 X2.2815 Y14.4595
G01 F60.00
G01 Z-0.0500
G01 F120.00
G01 X2.6389 Y15.1815
G01 X2.9818 Y15.7869
G01 X3.3540 Y16.3747
G01 X3.6888 Y16.8500
G01 X3.9480 Y16.8500
G01 X3.5286 Y16.2580
G01 X3.1619 Y15.6789
G01 X2.8241 Y15.0826
G01 X2.5112 Y14.4596
G00 Z0.5000
G00 X2.7456 Y14.4597
G01 F60.00
G01 Z-0.0500
G01 F120.00
G01 X3.0093 Y14.9836
G01 X3.3421 Y15.5710
G01 X3.7033 Y16.1414
G01 X4.2143 Y16.8500
G00 Z0.5000
G00 X4.4806 Y16.8500
G01 F60.00
G01 Z-0.0500
G01 F120.00
G01 X4.2607 Y16.5682
G01 X3.8779 Y16.0247
G01 X3.5222 Y15.4630
G01 X3.1945 Y14.8846
G01 X2.9807 Y14.4598
G01 X3.2157 Y14.4598
G01 X3.3797 Y14.7856
G01 X3.7023 Y15.3551
G01 X4.0525 Y15.9080
G01 X4.4293 Y16.4432
G01 X4.7469 Y16.8500
G00 Z0.5000
G00 X5.0151 Y16.8500
G01 F60.00
G01 Z-0.0500
G01 F120.00
G01 X4.5980 Y16.3181
G01 X4.2271 Y15.7914
G01 X3.8824 Y15.2471
G01 X3.4508 Y14.4599
G00 Z0.5000
G00 X3.6859 Y14.4600
G01 F60.00
G01 Z-0.0500
G01 F120.00
G01 X4.0626 Y15.1391
G01 X4.4017 Y15.6747
G01 X4.7667 Y16.1930
G01 X5.2924 Y16.8500
G00 Z0.5000
G00 X5.5696 Y16.8500
G01 F60.00
G01 Z-0.0500
G01 F120.00
G01 X5.3190 Y16.5595
G01 X4.9354 Y16.0679
G01 X4.5763 Y15.5580
G01 X4.2427 Y15.0312
G01 X3.9209 Y14.4601
G01 X4.1605 Y14.4601
G01 X4.4228 Y14.9232
G01 X4.7509 Y15.4414
G01 X5.1040 Y15.9428
G01 X5.4814 Y16.4262
G01 X5.8469 Y16.8500
G00 Z0.5000
G00 X6.1331 Y16.8500
G01 F60.00
G01 Z-0.0500
G01 F120.00
G01 X5.6437 Y16.2930
G01 X5.2727 Y15.8177
G01 X4.9255 Y15.3247
G01 X4.6029 Y14.8153
G01 X4.4018 Y14.4602
G00 Z0.5000
G00 X4.6431 Y14.4603
G01 F60.00
G01 Z-0.0500
G01 F120.00
G01 X5.1001 Y15.2080
G01 X5.4414 Y15.6926
G01 X5.8060 Y16.1598
G01 X6.1931 Y16.6086
G01 X6.4230 Y16.8500
G00 Z0.5000
G00 X6.7129 Y16.8500
G01 F60.00
G01 Z-0.0500
G01 F120.00
G01 X6.3487 Y16.4675
G01 X5.9684 Y16.0266
G01 X5.6101 Y15.5675
G01 X5.2747 Y15.0913
G01 X4.8845 Y14.4604
G00 Z0.5000
G00 X5.1258 Y14.4605
G01 F60.00
G01 Z-0.0500
G01 F120.00
G01 X5.4493 Y14.9747
G01 X5.7787 Y15.4424
G01 X6.1307 Y15.8934
G01 X6.5043 Y16.3265
G01 X7.0135 Y16.8500
G00 Z0.5000
G00 X7.3179 Y16.8500
G01 F60.00
G01 Z-0.0500
G01 F120.00
G01 X7.0473 Y16.5923
G01 X6.6599 Y16.1855
G01 X6.2930 Y15.7601
G01 X5.9474 Y15.3173
G01 X5.6239 Y14.8580
G01 X5.3723 Y14.4605
G00 Z0.5000
G00 X5.6208 Y14.4606
G01 F60.00
G01 Z-0.0500
G01 F120.00
G01 X5.7986 Y14.7413
G01 X6.1161 Y15.1922
G01 X6.4553 Y15.6269
G01 X6.8155 Y16.0445
G01 X7.1958 Y16.4438
G01 X7.6252 Y16.8500
G00 Z0.5000
G00 X7.9466 Y16.8500
G01 F60.00
G01 Z-0.0500
G01 F120.00
G01 X7.3443 Y16.2954
G01 X6.9711 Y15.9034
G01 X6.6177 Y15.4937
G01 X6.2848 Y15.0671
G01 X5.8693 Y14.4607
G00 Z0.5000
G00 X6.1179 Y14.4608
G01 F60.00
G01 Z-0.0500
G01 F120.00
G01 X6.4534 Y14.9420
G01 X6.7800 Y15.3605
G01 X7.1267 Y15.7624
G01 X7.4928 Y16.1469
G01 X7.8772 Y16.5129
G01 X8.2680 Y16.8500
G00 Z0.5000
G00 X8.6081 Y16.8500
G01 F60.00
G01 Z-0.0500
G01 F120.00
G01 X8.0182 Y16.3573
G01 X7.6413 Y15.9984
G01 X7.2823 Y15.6214
G01 X6.9423 Y15.2272
G01 X6.6221 Y14.8169
G01 X6.3714 Y14.4609
G00 Z0.5000
G00 X6.6282 Y14.4610
G01 F60.00
G01 Z-0.0500
G01 F120.00
G01 X7.1047 Y15.0940
G01 X7.4379 Y15.4804
G01 X7.7897 Y15.8499
G01 X8.1593 Y16.2017
G01 X8.5456 Y16.5349
G01 X8.9495 Y16.8500
G00 Z0.5000
G00 X9.3141 Y16.8500
G01 F60.00
G01 Z-0.0500
G01 F120.00
G01 X8.6788 Y16.3726
G01 X8.3003 Y16.0461
G01 X7.9382 Y15.7014
G01 X7.5935 Y15.3393
G01 X7.2670 Y14.9608
G01 X6.8850 Y14.4610
G00 Z0.5000
G00 X7.1434 Y14.4611
G01 F60.00
G01 Z-0.0500
G01 F120.00
G01 X7.4293 Y14.8276
G01 X7.7491 Y15.1983
G01 X8.0867 Y15.5529
G01 X8.4413 Y15.8905
G01 X8.8120 Y16.2103
G01 X9.1980 Y16.5115
G01 X9.6877 Y16.8500
G01 X10.0801 Y16.8500
G01 X9.7150 Y16.6188
G01 X9.3231 Y16.3428
G01 X8.9453 Y16.0479
G01 X8.5823 Y15.7349
G01 X8.2352 Y15.4044
G01 X7.9047 Y15.0573
G01 X7.4097 Y14.4612
G00 Z0.5000
G00 X7.6761 Y14.4613
G01 F60.00
G01 Z-0.0500
G01 F120.00
G01 X8.0603 Y14.9162
G01 X8.3837 Y15.2559
G01 X8.7234 Y15.5793
G01 X9.0785 Y15.8856
G01 X9.4482 Y16.1741
G01 X9.8316 Y16.4442
G01 X10.5013 Y16.8500
G00 Z0.5000
G00 X10.9514 Y16.8500
G01 F60.00
G01 Z-0.0500
G01 F120.00
G01 X10.3358 Y16.5150
G01 X9.9483 Y16.2696
G01 X9.5733 Y16.0055
G01 X9.2117 Y15.7233
G01 X8.8644 Y15.4237
G01 X8.5322 Y15.1074
G01 X8.2159 Y14.7752
G01 X7.9452 Y14.4614
G00 Z0.5000
G00 X8.2225 Y14.4615
G01 F60.00
G01 Z-0.0500
G01 F120.00
G01 X8.6807 Y14.9589
G01 X9.0054 Y15.2681
G01 X9.3449 Y15.5610
G01 X9.6984 Y15.8368
G01 X10.0650 Y16.0950
G01 X10.4438 Y16.3349
G01 X10.8339 Y16.5559
G01 X11.4432 Y16.8500
G00 Z0.5000
G00 X11.9965 Y16.8500
G01 F60.00
G01 Z-0.0500
G01 F120.00
G01 X11.3242 Y16.5676
G01 X10.9329 Y16.3706
G01 X10.5518 Y16.1547
G01 X10.1817 Y15.9204
G01 X9.8235 Y15.6681
G01 X9.4782 Y15.3986
G01 X9.1465 Y15.1125
G01 X8.8292 Y14.8104
G01 X8.4999 Y14.4616
G00 Z0.5000
G00 X8.7870 Y14.4617
G01 F60.00
G01 Z-0.0500
G01 F120.00
G01 X9.2875 Y14.9569
G01 X9.6114 Y15.2363
G01 X9.9486 Y15.4995
G01 X10.2983 Y15.7458
G01 X10.6597 Y15.9746
G01 X11.0319 Y16.1854
G01 X11.4140 Y16.3778
G01 X11.8050 Y16.5511
G01 X12.2041 Y16.7051
G01 X12.6492 Y16.8500
G00 Z0.5000
G00 X13.5323 Y16.8500
G01 F60.00
G01 Z-0.0500
G01 F120.00
G01 X13.0736 Y16.7496
G01 X12.6712 Y16.6383
G01 X12.2749 Y16.5073
G01 X11.8854 Y16.3571
G01 X11.5038 Y16.1879
G01 X11.1309 Y16.0002
G01 X10.7677 Y15.7945
G01 X10.4150 Y15.5711
G01 X10.0737 Y15.3308
G01 X9.7446 Y15.0740
G01 X9.4285 Y14.8013
G01 X9.0770 Y14.4618
G00 Z0.5000
G00 X9.3597 Y14.4459
G01 F60.00
G01 Z-0.0500
G01 F120.00
G01 X9.8778 Y14.9116
G01 X10.5317 Y15.3965
G01 X11.2299 Y15.8150
G01 X11.5936 Y15.9981
G01 X12.3456 Y16.3096
G01 X12.7322 Y16.4373
G01 X13.1246 Y16.5459
G01 X13.9230 Y16.7047
G01 X14.7331 Y16.7845
G01 X15.1401 Y16.7945
G01 X15.5471 Y16.7845
G01 X16.3572 Y16.7047
G01 X17.1556 Y16.5459
G01 X17.5480 Y16.4373
G01 X18.3145 Y16.1631
G01 X18.8500 Y15.9159
G00 Z0.5000
G00 X18.8500 Y16.1509
G01 F60.00
G01 Z-0.0500
G01 F120.00
G01 X18.3948 Y16.3571
G01 X18.0054 Y16.5073
G01 X17.6090 Y16.6383
G01 X17.2067 Y16.7496
G01 X16.7479 Y16.8500
G00 Z0.5000
G00 X17.6311 Y16.8500
G01 F60.00
G01 Z-0.0500
G01 F120.00
G01 X18.0761 Y16.7051
G01 X18.4752 Y16.5511
G01 X18.8500 Y16.3850
G00 Z0.5000
G00 X18.8500 Y16.6146
G01 F60.00
G01 Z-0.0500
G01 F120.00
G01 X18.2837 Y16.8500
G00 Z0.5000
G00 X18.8370 Y16.8500
G01 F60.00
G01 Z-0.0500
G01 F120.00
G01 X18.8500 Y16.8500
G01 X18.8500 Y0.1500
G01 X0.1500 Y0.1500
G01 X0.1500 Y16.8500
G01 X18.8500 Y16.8500
G00 Z0.5000
G00 X18.8500 Y15.6809
G01 F60.00
G01 Z-0.0500
G01 F120.00
G01 X18.2341 Y15.9691
G01 X17.4871 Y16.2364
G01 X16.7174 Y16.4291
G01 X16.3264 Y16.4970
G01 X15.5368 Y16.5748
G01 X15.1401 Y16.5845
G01 X14.7434 Y16.5748
G01 X13.9538 Y16.4970
G01 X13.1756 Y16.3422
G01 X12.7932 Y16.2364
G01 X12.0461 Y15.9691
G01 X11.6833 Y15.8083
G01 X11.3289 Y15.6298
G01 X10.6483 Y15.2219
G01 X10.0110 Y14.7493
G01 X9.5846 Y14.3701
G00 Z0.5000
G00 X9.7653 Y14.2523
G01 F60.00
G01 Z-0.0500
G01 F120.00
G01 X10.1443 Y14.5870
G01 X10.7650 Y15.0473
G01 X11.4279 Y15.4446
G01 X11.7731 Y15.6184
G01 X12.1265 Y15.7751
G01 X12.8541 Y16.0354
G01 X13.2267 Y16.1385
G01 X13.9846 Y16.2893
G01 X14.7537 Y16.3650
G01 X15.1401 Y16.3745
G01 X15.5265 Y16.3650
G01 X16.2956 Y16.2893
G01 X16.6765 Y16.2232
G01 X17.4261 Y16.0354
G01 X18.1538 Y15.7751
G01 X18.8500 Y15.4458
G01 X18.8500 Y15.2047
G01 X18.4173 Y15.4286
G01 X18.0734 Y15.5810
G01 X17.3652 Y15.8344
G01 X16.6355 Y16.0172
G01 X15.8914 Y16.1276
G01 X15.5162 Y16.1553
G01 X14.7640 Y16.1553
G01 X14.0154 Y16.0815
G01 X13.2777 Y15.9348
G01 X12.5579 Y15.7164
G01 X12.2069 Y15.5810
G01 X11.5269 Y15.2594
G01 X11.1995 Y15.0740
G01 X10.5741 Y14.6561
G01 X10.2775 Y14.4246
G01 X9.9144 Y14.1044
G01 X10.0632 Y13.9562
G01 X10.4107 Y14.2623
G01 X10.6992 Y14.4874
G01 X11.3075 Y14.8939
G01 X11.9527 Y15.2387
G01 X12.6286 Y15.5187
G01 X13.3287 Y15.7311
G01 X14.0462 Y15.8738
G01 X14.4094 Y15.9186
G01 X15.1401 Y15.9545
G01 X15.8708 Y15.9186
G01 X16.2340 Y15.8738
G01 X16.9515 Y15.7311
G01 X17.6516 Y15.5187
G01 X18.3275 Y15.2387
G01 X18.8500 Y14.9634
G01 X18.8500 Y14.7221
G01 X18.2378 Y15.0489
G01 X17.5809 Y15.3210
G01 X17.2432 Y15.4325
G01 X16.5535 Y15.6053
G01 X16.2032 Y15.6661
G01 X15.4956 Y15.7358
G01 X15.1401 Y15.7445
G01 X14.4300 Y15.7096
G01 X13.7267 Y15.6053
G01 X13.0370 Y15.4325
G01 X12.6994 Y15.3210
G01 X12.0425 Y15.0489
G01 X11.4154 Y14.7137
G01 X11.1150 Y14.5235
G01 X10.5439 Y14.1000
G01 X10.2119 Y13.8080
G01 X10.3607 Y13.6597
G01 X10.6772 Y13.9376
G01 X10.9494 Y14.1501
G01 X11.5234 Y14.5336
G01 X12.1323 Y14.8591
G01 X12.7701 Y15.1233
G01 X13.0980 Y15.2316
G01 X13.7677 Y15.3993
G01 X14.4506 Y15.5006
G01 X14.7949 Y15.5260
G01 X15.4853 Y15.5260
G01 X15.8297 Y15.5006
G01 X16.5126 Y15.3993
G01 X17.1823 Y15.2316
G01 X17.8323 Y14.9990
G01 X18.4564 Y14.7038
G01 X18.7568 Y14.5336
G01 X18.8500 Y14.4746
G01 X18.8500 Y14.2261
G01 X18.3574 Y14.5186
G01 X17.7519 Y14.8050
G01 X17.1213 Y15.0306
G01 X16.7985 Y15.1200
G01 X16.4716 Y15.1934
G01 X15.8091 Y15.2916
G01 X15.1401 Y15.3245
G01 X14.4712 Y15.2916
G01 X13.8086 Y15.1934
G01 X13.1589 Y15.0306
G01 X12.8408 Y14.9255
G01 X12.2221 Y14.6692
G01 X11.9228 Y14.5186
G01 X11.3484 Y14.1743
G01 X10.8104 Y13.7753
G01 X10.5095 Y13.5115
G00 Z0.5000
G00 X10.6583 Y13.3633
G01 F60.00
G01 Z-0.0500
G01 F120.00
G01 X10.9436 Y13.6130
G01 X11.4650 Y13.9997
G01 X11.7393 Y14.1734
G01 X12.3118 Y14.4794
G01 X12.9116 Y14.7278
G01 X13.5328 Y14.9163
G01 X14.1695 Y15.0429
G01 X14.4917 Y15.0826
G01 X14.8155 Y15.1065
G01 X15.4647 Y15.1065
G01 X16.1107 Y15.0429
G01 X16.7474 Y14.9163
G01 X17.3686 Y14.7278
G01 X17.9684 Y14.4794
G01 X18.5409 Y14.1734
G01 X18.8500 Y13.9752
G01 X18.8500 Y13.7184
G01 X18.4329 Y13.9933
G01 X18.1594 Y14.1482
G01 X17.5912 Y14.4169
G01 X16.9994 Y14.6287
G01 X16.3897 Y14.7814
G01 X16.0799 Y14.8352
G01 X15.4544 Y14.8968
G01 X15.1401 Y14.9045
G01 X14.5123 Y14.8737
G01 X14.2003 Y14.8352
G01 X13.5838 Y14.7126
G01 X12.9823 Y14.5301
G01 X12.4016 Y14.2896
G01 X12.1208 Y14.1482
G01 X11.5817 Y13.8251
G01 X11.0768 Y13.4506
G01 X10.8066 Y13.2147
G00 Z0.5000
G00 X10.9334 Y13.0455
G01 F60.00
G01 Z-0.0500
G01 F120.00
G01 X11.2101 Y13.2883
G01 X11.6984 Y13.6505
G01 X12.2198 Y13.9630
G01 X12.7694 Y14.2229
G01 X13.3418 Y14.4277
G01 X13.6349 Y14.5088
G01 X14.2311 Y14.6274
G01 X14.8361 Y14.6870
G01 X15.4441 Y14.6870
G01 X16.0491 Y14.6274
G01 X16.3487 Y14.5755
G01 X16.9384 Y14.4277
G01 X17.5108 Y14.2229
G01 X18.0604 Y13.9630
G01 X18.5819 Y13.6505
G01 X18.8500 Y13.4601
G01 X18.8500 Y13.1938
G01 X18.4652 Y13.4758
G01 X18.2170 Y13.6330
G01 X17.6990 Y13.9099
G01 X17.1564 Y14.1346
G01 X16.5944 Y14.3051
G01 X16.0183 Y14.4197
G01 X15.4338 Y14.4773
G01 X15.1401 Y14.4845
G01 X14.5535 Y14.4557
G01 X14.2619 Y14.4197
G01 X13.6859 Y14.3051
G01 X13.1238 Y14.1346
G01 X12.5812 Y13.9099
G01 X12.0632 Y13.6330
G01 X11.8150 Y13.4758
G01 X11.3433 Y13.1260
G01 X11.0205 Y12.8386
G00 Z0.5000
G00 X11.0672 Y12.5932
G01 F60.00
G01 Z-0.0500
G01 F120.00
G01 X11.4765 Y12.9636
G01 X11.9317 Y13.3012
G01 X12.4178 Y13.5926
G01 X12.9301 Y13.8349
G01 X13.1946 Y13.9369
G01 X13.7369 Y14.1014
G01 X14.2928 Y14.2120
G01 X14.8568 Y14.2675
G01 X15.4235 Y14.2675
G01 X15.9875 Y14.2120
G01 X16.5433 Y14.1014
G01 X17.0857 Y13.9369
G01 X17.6093 Y13.7200
G01 X18.1091 Y13.4529
G01 X18.5803 Y13.1380
G01 X18.8500 Y12.9237
G00 Z0.5000
G00 X18.8500 Y12.6465
G01 F60.00
G01 Z-0.0500
G01 F120.00
G01 X18.4552 Y12.9694
G01 X18.0011 Y13.2728
G01 X17.5195 Y13.5302
G01 X17.0149 Y13.7392
G01 X16.7556 Y13.8249
G01 X16.2258 Y13.9576
G01 X15.6856 Y14.0377
G01 X15.1401 Y14.0645
G01 X14.5947 Y14.0377
G01 X14.0544 Y13.9576
G01 X13.5247 Y13.8249
G01 X13.0105 Y13.6409
G01 X12.5168 Y13.4074
G01 X12.0484 Y13.1266
G01 X11.6097 Y12.8013
G01 X11.2453 Y12.4728
G00 Z0.5000
G00 X11.3664 Y12.2983
G01 F60.00
G01 Z-0.0500
G01 F120.00
G01 X11.7429 Y12.6390
G01 X12.1650 Y12.9520
G01 X12.6158 Y13.2222
G01 X13.0908 Y13.4469
G01 X13.5856 Y13.6239
G01 X14.0954 Y13.7516
G01 X14.6152 Y13.8287
G01 X15.1401 Y13.8545
G01 X15.6650 Y13.8287
G01 X16.1848 Y13.7516
G01 X16.6946 Y13.6239
G01 X17.1894 Y13.4469
G01 X17.6644 Y13.2222
G01 X18.1152 Y12.9520
G01 X18.5373 Y12.6390
G01 X18.8500 Y12.3591
G00 Z0.5000
G00 X18.8500 Y12.0621
G01 F60.00
G01 Z-0.0500
G01 F120.00
G01 X18.4041 Y12.4766
G01 X17.9985 Y12.7774
G01 X17.5655 Y13.0370
G01 X17.1090 Y13.2529
G01 X16.6336 Y13.4230
G01 X16.1439 Y13.5456
G01 X15.6444 Y13.6197
G01 X15.1401 Y13.6445
G01 X14.6358 Y13.6197
G01 X14.1364 Y13.5456
G01 X13.6466 Y13.4230
G01 X13.1712 Y13.2529
G01 X12.7148 Y13.0370
G01 X12.2817 Y12.7774
G01 X11.8762 Y12.4766
G01 X11.4282 Y12.0599
G00 Z0.5000
G00 X11.4293 Y11.7508
G01 F60.00
G01 Z-0.0500
G01 F120.00
G01 X11.8260 Y12.1561
G01 X12.2003 Y12.4633
G01 X12.6030 Y12.7324
G01 X13.0301 Y12.9607
G01 X13.2516 Y13.0588
G01 X13.4776 Y13.1460
G01 X13.9410 Y13.2866
G01 X14.4160 Y13.3811
G01 X14.8980 Y13.4286
G01 X15.3823 Y13.4286
G01 X15.6238 Y13.4107
G01 X16.1029 Y13.3397
G01 X16.5727 Y13.2220
G01 X17.0287 Y13.0588
G01 X17.4665 Y12.8518
G01 X17.6772 Y12.7324
G01 X18.0799 Y12.4633
G01 X18.2709 Y12.3143
G01 X18.4543 Y12.1561
G01 X18.7967 Y11.8136
G01 X18.8500 Y11.7519
G01 X18.8500 Y11.4234
G01 X18.4812 Y11.8406
G01 X18.1376 Y12.1520
G01 X17.7652 Y12.4282
G01 X17.3675 Y12.6666
G01 X17.1603 Y12.7708
G01 X16.7319 Y12.9483
G01 X16.2882 Y13.0829
G01 X15.8334 Y13.1734
G01 X15.6033 Y13.2017
G01 X15.1401 Y13.2245
G01 X14.6770 Y13.2017
G01 X14.4468 Y13.1734
G01 X13.9920 Y13.0829
G01 X13.5483 Y12.9483
G01 X13.1199 Y12.7708
G01 X12.9128 Y12.6666
G01 X12.5151 Y12.4282
G01 X12.1426 Y12.1520
G01 X11.7990 Y11.8406
G01 X11.4265 Y11.4187
G00 Z0.5000
G00 X11.3885 Y11.0113
G01 F60.00
G01 Z-0.0500
G01 F120.00
G01 X11.6500 Y11.3638
G01 X11.7947 Y11.5316
G01 X12.1080 Y11.8449
G01 X12.4505 Y12.1260
G01 X12.8189 Y12.3721
G01 X13.0118 Y12.4814
G01 X13.4123 Y12.6708
G01 X13.8295 Y12.8201
G01 X14.0431 Y12.8792
G01 X14.4776 Y12.9656
G01 X14.9186 Y13.0091
G01 X15.1401 Y13.0145
G01 X15.3617 Y13.0091
G01 X15.8026 Y12.9656
G01 X16.2372 Y12.8792
G01 X16.4508 Y12.8201
G01 X16.8679 Y12.6708
G01 X17.2685 Y12.4814
G01 X17.6485 Y12.2536
G01 X18.0044 Y11.9896
G01 X18.1722 Y11.8449
G01 X18.4855 Y11.5316
G01 X18.8500 Y11.0707
G00 Z0.5000
G00 X18.8500 Y10.6821
G01 F60.00
G01 Z-0.0500
G01 F120.00
G01 X18.7196 Y10.8912
G01 X18.4679 Y11.2306
G01 X18.1842 Y11.5436
G01 X18.0312 Y11.6893
G01 X17.7046 Y11.9573
G01 X17.5318 Y12.0790
G01 X17.3533 Y12.1920
G01 X16.9807 Y12.3912
G01 X16.5904 Y12.5528
G01 X16.3898 Y12.6191
G01 X15.9800 Y12.7218
G01 X15.7718 Y12.7579
G01 X15.3514 Y12.7993
G01 X15.1401 Y12.8045
G01 X14.9289 Y12.7993
G01 X14.5084 Y12.7579
G01 X14.0941 Y12.6755
G01 X13.8904 Y12.6191
G01 X13.6898 Y12.5528
G01 X13.2995 Y12.3912
G01 X13.1108 Y12.2962
G01 X12.7484 Y12.0790
G01 X12.5756 Y11.9573
G01 X12.2491 Y11.6893
G01 X11.9503 Y11.3906
G01 X11.8123 Y11.2306
G01 X11.5606 Y10.8912
G01 X11.4476 Y10.7127
G01 X11.2484 Y10.3401
G01 X11.1628 Y10.1470
G01 X11.0205 Y9.7492
G01 X10.9612 Y9.5325
G00 Z0.5000
G00 X10.7514 Y9.5563
G01 F60.00
G01 Z-0.0500
G01 F120.00
G01 X10.8195 Y9.8101
G01 X10.9688 Y10.2273
G01 X11.2401 Y10.7724
G00 Z0.5000
G00 X10.9109 Y10.6034
G01 F60.00
G01 Z-0.0500
G01 F120.00
G01 X10.6913 Y10.0913
G01 X10.5360 Y9.5551
G00 Z0.5000
G00 X10.3205 Y9.5539
G01 F60.00
G01 Z-0.0500
G01 F120.00
G01 X10.4176 Y9.9321
G01 X10.4936 Y10.1621
G01 X10.6747 Y10.5999
G00 Z0.5000
G00 X10.4446 Y10.5989
G01 F60.00
G01 Z-0.0500
G01 F120.00
G01 X10.2959 Y10.2328
G01 X10.2167 Y9.9930
G01 X10.1051 Y9.5527
G01 X9.8897 Y9.5516
G01 X10.0157 Y10.0540
G01 X10.2145 Y10.5979
G00 Z0.5000
G00 X9.9863 Y10.5969
G01 F60.00
G01 Z-0.0500
G01 F120.00
G01 X9.8147 Y10.1149
G01 X9.6760 Y9.5504
G00 Z0.5000
G00 X9.4627 Y9.5491
G01 F60.00
G01 Z-0.0500
G01 F120.00
G01 X9.6138 Y10.1759
G01 X9.7609 Y10.5960
G00 Z0.5000
G00 X9.5355 Y10.5950
G01 F60.00
G01 Z-0.0500
G01 F120.00
G01 X9.3345 Y9.9537
G01 X9.2354 Y9.4669
G00 Z0.5000
G00 X8.9873 Y9.2067
G01 F60.00
G01 Z-0.0500
G01 F120.00
G01 X9.0642 Y9.7081
G01 X9.1308 Y10.0048
G01 X9.3259 Y10.6348
G00 Z0.5000
G00 X9.1447 Y10.7485
G01 F60.00
G01 Z-0.0500
G01 F120.00
G01 X9.0109 Y10.3588
G01 X8.9271 Y10.0558
G01 X8.8582 Y9.7491
G01 X8.7758 Y9.2067
G00 Z0.5000
G00 X8.5642 Y9.2067
G01 F60.00
G01 Z-0.0500
G01 F120.00
G01 X8.6522 Y9.7900
G01 X8.7234 Y10.1068
G01 X8.8100 Y10.4197
G01 X8.9934 Y10.9395
G00 Z0.5000
G00 X8.9243 Y11.3137
G01 F60.00
G01 Z-0.0500
G01 F120.00
G01 X8.7141 Y10.7988
G01 X8.5197 Y10.1578
G01 X8.4463 Y9.8310
G01 X8.3527 Y9.2067
G00 Z0.5000
G00 X8.1412 Y9.2067
G01 F60.00
G01 Z-0.0500
G01 F120.00
G01 X8.2403 Y9.8720
G01 X8.4080 Y10.5417
G01 X8.6406 Y11.1917
G01 X8.9204 Y11.7852
G00 Z0.5000
G00 X9.0724 Y12.4556
G01 F60.00
G01 Z-0.0500
G01 F120.00
G01 X8.7506 Y11.9148
G01 X8.5907 Y11.5971
G01 X8.3186 Y10.9403
G01 X8.1122 Y10.2599
G01 X8.0343 Y9.9129
G01 X7.9298 Y9.2067
G00 Z0.5000
G00 X7.7193 Y9.2067
G01 F60.00
G01 Z-0.0500
G01 F120.00
G01 X7.8284 Y9.9539
G01 X8.0061 Y10.6636
G01 X8.1209 Y11.0110
G01 X8.4009 Y11.6869
G01 X8.5654 Y12.0138
G01 X8.9202 Y12.6077
G01 X8.7291 Y12.6983
G01 X8.3802 Y12.1128
G01 X8.2110 Y11.7767
G01 X7.9232 Y11.0818
G01 X7.7048 Y10.3619
G01 X7.5581 Y9.6242
G01 X7.5088 Y9.2067
G01 X7.2983 Y9.2067
G01 X7.3504 Y9.6550
G01 X7.4164 Y10.0358
G01 X7.6042 Y10.7855
G01 X7.8646 Y11.5131
G01 X8.1950 Y12.2117
G01 X8.4807 Y12.6983
G00 Z0.5000
G00 X11.1566 Y9.4446
G01 F60.00
G01 Z-0.0500
G01 F120.00
G01 X11.2214 Y9.6882
G01 X11.3568 Y10.0666
G01 X11.6277 Y10.6048
G01 X11.9746 Y11.0973
G01 X12.3901 Y11.5337
G01 X12.8651 Y11.9044
G01 X13.3893 Y12.2013
G01 X13.7606 Y12.3551
G01 X14.1451 Y12.4718
G01 X14.7387 Y12.5748
G01 X15.3411 Y12.5896
G01 X15.7410 Y12.5502
G01 X16.1351 Y12.4718
G01 X16.7072 Y12.2828
G01 X17.2454 Y12.0119
G01 X17.7380 Y11.6650
G01 X18.1743 Y11.2495
G01 X18.5450 Y10.7746
G01 X18.7516 Y10.4299
G01 X18.8500 Y10.2322
G01 X18.8500 Y9.6510
G01 X18.6521 Y10.1606
G01 X18.4724 Y10.4968
G01 X18.2606 Y10.8138
G01 X18.0187 Y11.1085
G01 X17.7491 Y11.3781
G01 X17.4544 Y11.6200
G01 X17.1374 Y11.8318
G01 X16.8012 Y12.0115
G01 X16.2679 Y12.2172
G01 X15.7102 Y12.3425
G01 X15.1401 Y12.3845
G01 X14.5701 Y12.3425
G01 X14.0124 Y12.2172
G01 X13.4791 Y12.0115
G01 X12.9817 Y11.7298
G01 X12.5311 Y11.3781
G01 X12.1370 Y10.9641
G01 X11.8078 Y10.4968
G01 X11.5508 Y9.9862
G01 X11.4224 Y9.6273
G01 X11.3309 Y9.2626
G00 Z0.5000
G00 X11.3232 Y7.7792
G01 F60.00
G01 Z-0.0500
G01 F120.00
G01 X11.3715 Y7.5555
G01 X11.4857 Y7.1817
G00 Z0.5000
G00 X11.7107 Y7.1817
G01 F60.00
G01 Z-0.0500
G01 F120.00
G01 X11.5753 Y7.6065
G01 X11.5049 Y7.9603
G01 X11.4651 Y8.4995
G01 X11.4828 Y8.8597
G01 X11.5753 Y9.3925
G01 X11.6799 Y9.7376
G01 X11.8180 Y10.0708
G01 X12.0845 Y10.5412
G01 X12.4171 Y10.9675
G01 X12.6721 Y11.2225
G01 X12.9509 Y11.4513
G01 X13.4077 Y11.7406
G01 X13.9020 Y11.9597
G01 X14.2472 Y12.0644
G01 X14.7799 Y12.1568
G01 X15.1401 Y12.1745
G01 X15.5003 Y12.1568
G01 X16.0331 Y12.0644
G01 X16.3782 Y11.9597
G01 X16.8725 Y11.7406
G01 X17.3293 Y11.4513
G01 X17.6081 Y11.2225
G01 X17.9809 Y10.8309
G01 X18.1958 Y10.5412
G01 X18.4623 Y10.0708
G01 X18.6003 Y9.7376
G01 X18.7445 Y9.2165
G01 X18.7974 Y8.8597
G01 X18.8151 Y8.4995
G01 X18.7753 Y7.9603
G01 X18.6569 Y7.4327
G01 X18.5354 Y7.0931
G01 X18.3812 Y6.7671
G01 X18.0919 Y6.3103
G01 X17.8631 Y6.0315
G01 X17.4715 Y5.6587
G01 X17.1818 Y5.4438
G01 X16.7114 Y5.1773
G01 X16.3782 Y5.0393
G01 X15.8571 Y4.8951
G01 X15.3204 Y4.8289
G01 X14.9598 Y4.8289
G01 X14.6009 Y4.8643
G01 X14.2472 Y4.9346
G01 X13.7338 Y5.1042
G01 X13.4077 Y5.2584
G01 X12.9509 Y5.5477
G01 X12.6282 Y5.8183
G01 X12.3303 Y5.8183
G01 X12.6755 Y5.4964
G01 X13.1428 Y5.1672
G01 X13.4791 Y4.9875
G01 X14.0124 Y4.7818
G01 X14.5701 Y4.6565
G01 X15.1401 Y4.6145
G01 X15.7102 Y4.6565
G01 X16.0841 Y4.7309
G01 X16.6268 Y4.9102
G01 X16.9715 Y5.0732
G01 X17.2985 Y5.2692
G01 X17.7491 Y5.6209
G01 X18.1433 Y6.0349
G01 X18.3704 Y6.3411
G01 X18.6521 Y6.8384
G01 X18.8500 Y7.3480
G00 Z0.5000
G00 X18.8500 Y6.7668
G01 F60.00
G01 Z-0.0500
G01 F120.00
G01 X18.6525 Y6.3942
G01 X18.3056 Y5.9017
G01 X17.8902 Y5.4653
G01 X17.4152 Y5.0946
G01 X16.8910 Y4.7977
G01 X16.3288 Y4.5808
G01 X15.7410 Y4.4488
G01 X15.2074 Y4.4062
G00 Z0.5000
G00 X15.5214 Y4.2122
G01 F60.00
G01 Z-0.0500
G01 F120.00
G01 X15.9800 Y4.2772
G01 X16.3898 Y4.3799
G01 X16.7876 Y4.5222
G01 X17.1695 Y4.7028
G01 X17.3533 Y4.8070
G01 X17.7046 Y5.0417
G01 X18.0312 Y5.3097
G01 X18.1842 Y5.4554
G01 X18.4679 Y5.7684
G01 X18.5979 Y5.9350
G01 X18.8500 Y6.3169
G00 Z0.5000
G00 X18.8500 Y5.9283
G01 F60.00
G01 Z-0.0500
G01 F120.00
G01 X18.4855 Y5.4674
G01 X18.1722 Y5.1541
G01 X17.8297 Y4.8730
G01 X17.4613 Y4.6269
G01 X17.0705 Y4.4180
G01 X16.6612 Y4.2484
G01 X16.2372 Y4.1198
G01 X15.6419 Y4.0135
G00 Z0.5000
G00 X15.6814 Y3.8069
G01 F60.00
G01 Z-0.0500
G01 F120.00
G01 X16.0619 Y3.8653
G01 X16.5117 Y3.9780
G01 X16.9483 Y4.1342
G01 X17.3675 Y4.3324
G01 X17.7652 Y4.5708
G01 X18.1376 Y4.8470
G01 X18.4812 Y5.1584
G01 X18.8500 Y5.5756
G00 Z0.5000
G00 X18.8500 Y5.2471
G01 F60.00
G01 Z-0.0500
G01 F120.00
G01 X18.6297 Y5.0099
G01 X18.2709 Y4.6847
G01 X18.0799 Y4.5357
G01 X17.6772 Y4.2666
G01 X17.2501 Y4.0383
G01 X16.8027 Y3.8530
G01 X16.3392 Y3.7124
G01 X16.1029 Y3.6593
G01 X15.6815 Y3.5954
G01 X15.6815 Y3.3839
G01 X16.1439 Y3.4534
G01 X16.6336 Y3.5760
G01 X16.8734 Y3.6553
G01 X17.3399 Y3.8485
G01 X17.7852 Y4.0865
G01 X18.2050 Y4.3670
G01 X18.5953 Y4.6873
G01 X18.8500 Y4.9369
G00 Z0.5000
G00 X18.8500 Y4.6399
G01 F60.00
G01 Z-0.0500
G01 F120.00
G01 X18.5373 Y4.3600
G01 X18.1152 Y4.0470
G01 X17.6644 Y3.7768
G01 X17.4297 Y3.6586
G01 X16.9442 Y3.4575
G01 X16.6946 Y3.3751
G01 X16.1848 Y3.2474
G01 X15.6815 Y3.1723
G00 Z0.5000
G00 X15.6809 Y2.9610
G01 F60.00
G01 Z-0.0500
G01 F120.00
G01 X15.9567 Y2.9947
G01 X16.4923 Y3.1013
G01 X16.7556 Y3.1741
G01 X17.2698 Y3.3581
G01 X17.7634 Y3.5916
G01 X18.0011 Y3.7262
G01 X18.4552 Y4.0297
G01 X18.8500 Y4.3525
G01 X18.8500 Y4.0753
G01 X18.3485 Y3.6978
G01 X17.8624 Y3.4064
G01 X17.6093 Y3.2790
G01 X17.0857 Y3.0621
G01 X16.5433 Y2.8976
G01 X15.9875 Y2.7870
G01 X15.6339 Y2.7470
G00 Z0.5000
G00 X15.4856 Y2.5255
G01 F60.00
G01 Z-0.0500
G01 F120.00
G01 X16.0183 Y2.5793
G01 X16.3077 Y2.6295
G01 X16.5944 Y2.6939
G01 X17.1564 Y2.8644
G01 X17.6990 Y3.0891
G01 X17.9614 Y3.2212
G01 X18.4652 Y3.5232
G01 X18.8500 Y3.8052
G00 Z0.5000
G00 X18.8500 Y3.5389
G01 F60.00
G01 Z-0.0500
G01 F120.00
G01 X18.3250 Y3.1859
G01 X17.7888 Y2.8993
G01 X17.2272 Y2.6666
G01 X16.6454 Y2.4902
G01 X16.0491 Y2.3716
G01 X15.4441 Y2.3120
G01 X14.8361 Y2.3120
G01 X14.4495 Y2.3446
G00 Z0.5000
G00 X12.8546 Y2.5182
G01 F60.00
G01 Z-0.0500
G01 F120.00
G01 X13.2808 Y2.3703
G01 X13.5838 Y2.2865
G01 X13.8906 Y2.2176
G01 X14.5123 Y2.1253
G01 X14.8258 Y2.1022
G01 X15.4544 Y2.1022
G01 X16.0799 Y2.1638
G01 X16.3897 Y2.2176
G01 X16.9994 Y2.3703
G01 X17.5912 Y2.5821
G01 X18.1594 Y2.8508
G01 X18.4329 Y3.0057
G01 X18.8500 Y3.2806
G00 Z0.5000
G00 X18.8500 Y3.0238
G01 F60.00
G01 Z-0.0500
G01 F120.00
G01 X18.2584 Y2.6656
G01 X17.6716 Y2.3880
G01 X17.3686 Y2.2712
G01 X16.7474 Y2.0827
G01 X16.4306 Y2.0116
G01 X15.7885 Y1.9164
G01 X15.1401 Y1.8845
G01 X14.8155 Y1.8925
G01 X14.1695 Y1.9561
G01 X13.5328 Y2.0827
G01 X13.2199 Y2.1693
G01 X12.9116 Y2.2712
G01 X12.3150 Y2.5182
G00 Z0.5000
G00 X11.8561 Y2.5182
G01 F60.00
G01 Z-0.0500
G01 F120.00
G01 X12.2221 Y2.3298
G01 X12.5283 Y2.1940
G01 X12.8408 Y2.0735
G01 X13.4818 Y1.8790
G01 X14.1387 Y1.7484
G01 X14.4712 Y1.7074
G01 X15.1401 Y1.6745
G01 X15.4750 Y1.6827
G01 X15.8091 Y1.7074
G01 X16.4716 Y1.8056
G01 X17.1213 Y1.9684
G01 X17.4394 Y2.0735
G01 X18.0582 Y2.3298
G01 X18.3574 Y2.4804
G01 X18.8500 Y2.7729
G00 Z0.5000
G00 X18.8500 Y2.5244
G01 F60.00
G01 Z-0.0500
G01 F120.00
G01 X18.4564 Y2.2952
G01 X18.1480 Y2.1399
G01 X17.8323 Y2.0000
G01 X17.1823 Y1.7674
G01 X16.5126 Y1.5997
G01 X16.1724 Y1.5406
G01 X15.4853 Y1.4730
G01 X15.1401 Y1.4645
G01 X14.4506 Y1.4984
G01 X13.7677 Y1.5997
G01 X13.4308 Y1.6753
G01 X12.7701 Y1.8757
G01 X12.4479 Y2.0000
G01 X11.8238 Y2.2952
G01 X11.4400 Y2.5182
G01 X11.1297 Y2.4662
G01 X11.7249 Y2.1100
G01 X12.0425 Y1.9501
G01 X12.6994 Y1.6780
G01 X13.0370 Y1.5665
G01 X13.7267 Y1.3937
G01 X14.0771 Y1.3329
G01 X14.7846 Y1.2632
G01 X15.1401 Y1.2545
G01 X15.4956 Y1.2632
G01 X16.2032 Y1.3329
G01 X16.9005 Y1.4716
G01 X17.5809 Y1.6780
G01 X17.9127 Y1.8060
G01 X18.2378 Y1.9501
G01 X18.8500 Y2.2769
G00 Z0.5000
G00 X18.8500 Y2.0356
G01 F60.00
G01 Z-0.0500
G01 F120.00
G01 X18.3275 Y1.7603
G01 X17.9930 Y1.6120
G01 X17.3042 Y1.3655
G01 X16.9515 Y1.2679
G01 X16.2340 Y1.1252
G01 X15.8708 Y1.0804
G01 X15.1401 Y1.0445
G01 X14.7743 Y1.0535
G01 X14.0462 Y1.1252
G01 X13.6857 Y1.1877
G01 X13.3287 Y1.2679
G01 X12.6286 Y1.4803
G01 X12.2872 Y1.6120
G01 X11.6259 Y1.9248
G01 X11.3075 Y2.1051
G01 X10.8907 Y2.3767
G00 Z0.5000
G00 X10.5388 Y2.3704
G01 F60.00
G01 Z-0.0500
G01 F120.00
G01 X10.8817 Y2.1263
G01 X11.5269 Y1.7396
G01 X11.8629 Y1.5704
G01 X12.5579 Y1.2826
G01 X12.9151 Y1.1646
G01 X13.6448 Y0.9818
G01 X14.0154 Y0.9175
G01 X14.7640 Y0.8437
G01 X15.5162 Y0.8437
G01 X15.8914 Y0.8714
G01 X16.2648 Y0.9175
G01 X17.0026 Y1.0642
G01 X17.7224 Y1.2826
G01 X18.0734 Y1.4180
G01 X18.4173 Y1.5704
G01 X18.8500 Y1.7943
G00 Z0.5000
G00 X18.8500 Y1.5532
G01 F60.00
G01 Z-0.0500
G01 F120.00
G01 X18.1538 Y1.2239
G01 X17.7931 Y1.0848
G01 X17.4261 Y0.9636
G01 X16.6765 Y0.7758
G01 X16.2956 Y0.7097
G01 X15.5265 Y0.6340
G01 X14.7537 Y0.6340
G01 X14.3682 Y0.6624
G01 X13.9846 Y0.7097
G01 X13.2267 Y0.8605
G01 X12.4871 Y1.0848
G01 X11.7731 Y1.3806
G01 X11.4279 Y1.5544
G01 X10.7650 Y1.9517
G01 X10.1985 Y2.3698
G01 X9.8726 Y2.3691
G01 X10.3239 Y2.0056
G01 X10.9836 Y1.5648
G01 X11.3289 Y1.3692
G01 X12.0461 Y1.0299
G01 X12.4164 Y0.8871
G01 X13.1756 Y0.6568
G01 X13.9538 Y0.5020
G01 X14.3477 Y0.4534
G01 X14.7434 Y0.4242
G01 X15.5368 Y0.4242
G01 X16.3264 Y0.5020
G01 X16.7174 Y0.5699
G01 X17.4871 Y0.7626
G01 X17.8639 Y0.8871
G01 X18.2341 Y1.0299
G01 X18.8500 Y1.3181
G00 Z0.5000
G00 X18.8500 Y1.0831
G01 F60.00
G01 Z-0.0500
G01 F120.00
G01 X18.3145 Y0.8359
G01 X17.5480 Y0.5617
G01 X16.7584 Y0.3639
G01 X16.3572 Y0.2943
G01 X15.5471 Y0.2145
G01 X15.1401 Y0.2045
G01 X14.3271 Y0.2444
G01 X13.9230 Y0.2943
G01 X13.5218 Y0.3639
G01 X12.7322 Y0.5617
G01 X12.3456 Y0.6894
G01 X11.5936 Y1.0009
G01 X11.2299 Y1.1840
G01 X10.5317 Y1.6025
G01 X9.8778 Y2.0874
G01 X9.5536 Y2.3685
G00 Z0.5000
G00 X9.0760 Y2.5383
G01 F60.00
G01 Z-0.0500
G01 F120.00
G01 X9.4285 Y2.1977
G01 X9.7446 Y1.9250
G01 X10.0737 Y1.6682
G01 X10.4150 Y1.4279
G01 X10.7677 Y1.2045
G01 X11.1309 Y0.9988
G01 X11.5038 Y0.8111
G01 X11.8854 Y0.6419
G01 X12.2749 Y0.4917
G01 X12.6712 Y0.3607
G01 X13.0736 Y0.2494
G01 X13.5265 Y0.1500
G00 Z0.5000
G00 X12.6456 Y0.1500
G01 F60.00
G01 Z-0.0500
G01 F120.00
G01 X12.2041 Y0.2939
G01 X11.8050 Y0.4479
G01 X11.4140 Y0.6212
G01 X11.0319 Y0.8136
G01 X10.6597 Y1.0244
G01 X10.2983 Y1.2532
G01 X9.9486 Y1.4995
G01 X9.6114 Y1.7627
G01 X9.2875 Y2.0421
G01 X8.7858 Y2.5386
G01 X8.4987 Y2.5388
G01 X8.8292 Y2.1886
G01 X9.1465 Y1.8865
G01 X9.4782 Y1.6004
G01 X9.8235 Y1.3309
G01 X10.1817 Y1.0786
G01 X10.5518 Y0.8443
G01 X10.9329 Y0.6284
G01 X11.3242 Y0.4314
G01 X11.9940 Y0.1500
G00 Z0.5000
G00 X11.4410 Y0.1500
G01 F60.00
G01 Z-0.0500
G01 F120.00
G01 X10.8339 Y0.4431
G01 X10.4438 Y0.6641
G01 X10.0650 Y0.9040
G01 X9.6984 Y1.1622
G01 X9.3449 Y1.4380
G01 X9.0054 Y1.7309
G01 X8.6807 Y2.0401
G01 X8.2212 Y2.5391
G00 Z0.5000
G00 X7.9438 Y2.5393
G01 F60.00
G01 Z-0.0500
G01 F120.00
G01 X8.2159 Y2.2238
G01 X8.5322 Y1.8916
G01 X8.8644 Y1.5753
G01 X9.2117 Y1.2757
G01 X9.5733 Y0.9935
G01 X9.9483 Y0.7294
G01 X10.3358 Y0.4840
G01 X10.9494 Y0.1500
G00 Z0.5000
G00 X10.4995 Y0.1500
G01 F60.00
G01 Z-0.0500
G01 F120.00
G01 X9.8316 Y0.5548
G01 X9.4482 Y0.8249
G01 X9.0785 Y1.1134
G01 X8.7234 Y1.4197
G01 X8.3837 Y1.7431
G01 X8.0603 Y2.0828
G01 X7.6747 Y2.5396
G00 Z0.5000
G00 X7.4082 Y2.5398
G01 F60.00
G01 Z-0.0500
G01 F120.00
G01 X7.9047 Y1.9417
G01 X8.2352 Y1.5946
G01 X8.5823 Y1.2641
G01 X8.9453 Y0.9511
G01 X9.3231 Y0.6562
G01 X9.7150 Y0.3802
G01 X10.0785 Y0.1500
G00 Z0.5000
G00 X9.6861 Y0.1500
G01 F60.00
G01 Z-0.0500
G01 F120.00
G01 X9.1980 Y0.4875
G01 X8.8120 Y0.7887
G01 X8.4413 Y1.1085
G01 X8.0867 Y1.4461
G01 X7.7491 Y1.8007
G01 X7.4293 Y2.1714
G01 X7.1417 Y2.5400
G01 X6.8834 Y2.5403
G01 X7.2670 Y2.0382
G01 X7.5935 Y1.6597
G01 X7.9382 Y1.2976
G01 X8.3003 Y0.9529
G01 X8.6788 Y0.6264
G01 X9.3126 Y0.1500
G00 Z0.5000
G00 X8.9480 Y0.1500
G01 F60.00
G01 Z-0.0500
G01 F120.00
G01 X8.5456 Y0.4641
G01 X8.1593 Y0.7973
G01 X7.7897 Y1.1491
G01 X7.4379 Y1.5186
G01 X7.1047 Y1.9050
G01 X6.6265 Y2.5405
G00 Z0.5000
G00 X6.3695 Y2.5407
G01 F60.00
G01 Z-0.0500
G01 F120.00
G01 X6.6221 Y2.1821
G01 X6.9423 Y1.7718
G01 X7.2823 Y1.3776
G01 X7.6413 Y1.0006
G01 X8.0182 Y0.6417
G01 X8.6068 Y0.1500
G00 Z0.5000
G00 X8.2669 Y0.1500
G01 F60.00
G01 Z-0.0500
G01 F120.00
G01 X7.8772 Y0.4861
G01 X7.4928 Y0.8521
G01 X7.1267 Y1.2366
G01 X6.7800 Y1.6385
G01 X6.4534 Y2.0570
G01 X6.1162 Y2.5409
G00 Z0.5000
G00 X5.8675 Y2.5412
G01 F60.00
G01 Z-0.0500
G01 F120.00
G01 X6.2848 Y1.9319
G01 X6.6177 Y1.5053
G01 X6.9711 Y1.0956
G01 X7.3443 Y0.7036
G01 X7.9454 Y0.1500
G00 Z0.5000
G00 X7.6240 Y0.1500
G01 F60.00
G01 Z-0.0500
G01 F120.00
G01 X7.1958 Y0.5552
G01 X6.8155 Y0.9545
G01 X6.4553 Y1.3721
G01 X6.1161 Y1.8068
G01 X5.7986 Y2.2577
G01 X5.6189 Y2.5414
G01 X5.3703 Y2.5416
G01 X5.6239 Y2.1410
G01 X5.9474 Y1.6817
G01 X6.2930 Y1.2389
G01 X6.6599 Y0.8135
G01 X7.0473 Y0.4067
G01 X7.3169 Y0.1500
G00 Z0.5000
G00 X7.0124 Y0.1500
G01 F60.00
G01 Z-0.0500
G01 F120.00
G01 X6.5043 Y0.6725
G01 X6.1307 Y1.1056
G01 X5.7787 Y1.5566
G01 X5.4493 Y2.0243
G01 X5.1239 Y2.5418
G00 Z0.5000
G00 X4.8825 Y2.5421
G01 F60.00
G01 Z-0.0500
G01 F120.00
G01 X5.2747 Y1.9077
G01 X5.6101 Y1.4315
G01 X5.9684 Y0.9724
G01 X6.3487 Y0.5315
G01 X6.7119 Y0.1500
G00 Z0.5000
G00 X6.4220 Y0.1500
G01 F60.00
G01 Z-0.0500
G01 F120.00
G01 X6.1931 Y0.3904
G01 X5.8060 Y0.8392
G01 X5.4414 Y1.3064
G01 X5.1001 Y1.7910
G01 X4.6411 Y2.5423
G00 Z0.5000
G00 X4.3997 Y2.5425
G01 F60.00
G01 Z-0.0500
G01 F120.00
G01 X4.6029 Y2.1837
G01 X4.9255 Y1.6743
G01 X5.2727 Y1.1813
G01 X5.6437 Y0.7060
G01 X6.1322 Y0.1500
G00 Z0.5000
G00 X5.8460 Y0.1500
G01 F60.00
G01 Z-0.0500
G01 F120.00
G01 X5.4814 Y0.5728
G01 X5.1040 Y1.0562
G01 X4.7509 Y1.5577
G01 X4.4228 Y2.0758
G01 X4.1583 Y2.5427
G01 X3.9189 Y2.5429
G01 X4.2427 Y1.9678
G01 X4.5763 Y1.4410
G01 X4.9354 Y0.9311
G01 X5.3190 Y0.4395
G01 X5.5688 Y0.1500
G00 Z0.5000
G00 X5.2915 Y0.1500
G01 F60.00
G01 Z-0.0500
G01 F120.00
G01 X4.7667 Y0.8060
G01 X4.4017 Y1.3243
G01 X4.0626 Y1.8599
G01 X3.6838 Y2.5431
G00 Z0.5000
G00 X3.4487 Y2.5433
G01 F60.00
G01 Z-0.0500
G01 F120.00
G01 X3.8824 Y1.7519
G01 X4.2271 Y1.2076
G01 X4.5980 Y0.6809
G01 X5.0143 Y0.1500
G00 Z0.5000
G00 X4.7461 Y0.1500
G01 F60.00
G01 Z-0.0500
G01 F120.00
G01 X4.4293 Y0.5559
G01 X4.0525 Y1.0910
G01 X3.7023 Y1.6439
G01 X3.3797 Y2.2134
G01 X3.2135 Y2.5435
G00 Z0.5000
G00 X2.9784 Y2.5438
G01 F60.00
G01 Z-0.0500
G01 F120.00
G01 X3.1945 Y2.1144
G01 X3.5222 Y1.5360
G01 X3.8779 Y0.9743
G01 X4.2607 Y0.4308
G01 X4.4798 Y0.1500
G00 Z0.5000
G00 X4.2135 Y0.1500
G01 F60.00
G01 Z-0.0500
G01 F120.00
G01 X3.7033 Y0.8576
G01 X3.3421 Y1.4280
G01 X3.0093 Y2.0154
G01 X2.7433 Y2.5440
G00 Z0.5000
G00 X2.5090 Y2.5442
G01 F60.00
G01 Z-0.0500
G01 F120.00
G01 X2.8241 Y1.9164
G01 X3.1619 Y1.3201
G01 X3.5286 Y0.7410
G01 X3.9472 Y0.1500
G00 Z0.5000
G00 X3.6881 Y0.1500
G01 F60.00
G01 Z-0.0500
G01 F120.00
G01 X3.3540 Y0.6243
G01 X2.9818 Y1.2121
G01 X2.6389 Y1.8175
G01 X2.2793 Y2.5444
G00 Z0.5000
G00 X2.0496 Y2.5446
G01 F60.00
G01 Z-0.0500
G01 F120.00
G01 X2.4537 Y1.7185
G01 X2.8017 Y1.1041
G01 X3.1794 Y0.5076
G01 X3.4313 Y0.1500
G01 X3.1745 Y0.1500
G01 X3.0048 Y0.3910
G01 X2.6216 Y0.9962
G01 X2.2685 Y1.6195
G01 X1.9464 Y2.2593
G01 X1.8199 Y2.5448
G00 Z0.5000
G00 X1.5901 Y2.5450
G01 F60.00
G01 Z-0.0500
G01 F120.00
G01 X1.7566 Y2.1695
G01 X2.0833 Y1.5205
G01 X2.4414 Y0.8882
G01 X2.9177 Y0.1500
G00 Z0.5000
G00 X2.6610 Y0.1500
G01 F60.00
G01 Z-0.0500
G01 F120.00
G01 X2.2613 Y0.7802
G01 X1.8981 Y1.4215
G01 X1.5667 Y2.0798
G01 X1.3604 Y2.5452
G00 Z0.5000
G00 X8.7284 Y4.3018
G01 F60.00
G01 Z-0.0500
G01 F120.00
G01 X8.3802 Y4.8862
G01 X8.2110 Y5.2223
G01 X7.9232 Y5.9172
G01 X7.7048 Y6.6371
G01 X7.6224 Y7.0041
G01 X7.5581 Y7.3748
G01 X7.5050 Y7.8433
G00 Z0.5000
G00 X7.7155 Y7.8433
G01 F60.00
G01 Z-0.0500
G01 F120.00
G01 X7.7658 Y7.4056
G01 X7.9085 Y6.6881
G01 X8.0061 Y6.3354
G01 X8.2526 Y5.6466
G01 X8.5654 Y4.9852
G01 X8.7458 Y4.6669
G01 X8.9809 Y4.3018
G01 X9.2182 Y4.3294
G01 X8.9259 Y4.7748
G01 X8.7506 Y5.0842
G01 X8.5907 Y5.4019
G01 X8.3186 Y6.0587
G01 X8.2071 Y6.3964
G01 X8.0343 Y7.0861
G01 X7.9735 Y7.4364
G01 X7.9260 Y7.8433
G00 Z0.5000
G00 X8.1365 Y7.8433
G01 F60.00
G01 Z-0.0500
G01 F120.00
G01 X8.2403 Y7.1270
G01 X8.3159 Y6.7901
G01 X8.5164 Y6.1295
G01 X8.6406 Y5.8073
G01 X8.9358 Y5.1832
G01 X9.1060 Y4.8828
G01 X9.4168 Y4.4120
G00 Z0.5000
G00 X9.6618 Y4.4293
G01 F60.00
G01 Z-0.0500
G01 F120.00
G01 X9.4653 Y4.7077
G01 X9.1210 Y5.2822
G01 X8.8346 Y5.8877
G01 X8.7141 Y6.2002
G01 X8.5197 Y6.8412
G01 X8.4463 Y7.1680
G01 X8.3470 Y7.8433
G00 Z0.5000
G00 X8.5579 Y7.8433
G01 F60.00
G01 Z-0.0500
G01 F120.00
G01 X8.6522 Y7.2090
G01 X8.7234 Y6.8922
G01 X8.9189 Y6.2525
G00 Z0.5000
G00 X8.9219 Y6.9660
G01 F60.00
G01 Z-0.0500
G01 F120.00
G01 X8.8582 Y7.2499
G01 X8.7695 Y7.8433
G01 X8.9810 Y7.8433
G01 X9.0644 Y7.2897
G00 Z0.5000
G00 X9.2504 Y7.4455
G01 F60.00
G01 Z-0.0500
G01 F120.00
G01 X9.2264 Y7.5837
G00 Z0.5000
G00 X10.9508 Y7.5128
G01 F60.00
G01 Z-0.0500
G01 F120.00
G01 X10.9510 Y7.5119
G00 Z0.5000
G00 X11.1458 Y7.6028
G01 F60.00
G01 Z-0.0500
G01 F120.00
G01 X11.2030 Y7.3776
G01 X11.9357 Y7.1817
G01 X11.8243 Y7.4937
G01 X11.7417 Y7.8235
G01 X11.6918 Y8.1599
G01 X11.6751 Y8.4995
G01 X11.6918 Y8.8391
G01 X11.7417 Y9.1755
G01 X11.8777 Y9.6668
G01 X12.0078 Y9.9810
G01 X12.1681 Y10.2809
G01 X12.3570 Y10.5636
G01 X12.5727 Y10.8265
G01 X12.8132 Y11.0669
G01 X13.0760 Y11.2826
G01 X13.5067 Y11.5554
G01 X13.9728 Y11.7620
G01 X14.4641 Y11.8979
G01 X14.9701 Y11.9603
G01 X15.4797 Y11.9478
G01 X15.9820 Y11.8607
G01 X16.4661 Y11.7007
G01 X16.7735 Y11.5554
G01 X17.0652 Y11.3805
G01 X17.4671 Y11.0669
G01 X17.7075 Y10.8265
G01 X17.9232 Y10.5636
G01 X18.1121 Y10.2809
G01 X18.2724 Y9.9810
G01 X18.4026 Y9.6668
G01 X18.5013 Y9.3414
G01 X18.5676 Y9.0079
G01 X18.6009 Y8.6695
G01 X18.6009 Y8.3295
G01 X18.5676 Y7.9911
G01 X18.4559 Y7.4937
G01 X18.3414 Y7.1735
G01 X18.1960 Y6.8661
G01 X18.0212 Y6.5744
G01 X17.8186 Y6.3013
G01 X17.5902 Y6.0494
G01 X17.3383 Y5.8210
G01 X17.0652 Y5.6185
G01 X16.6216 Y5.3672
G01 X16.3074 Y5.2371
G01 X15.9820 Y5.1383
G01 X15.6485 Y5.0720
G01 X15.3101 Y5.0387
G01 X14.9701 Y5.0387
G01 X14.6317 Y5.0720
G01 X14.1343 Y5.1837
G01 X13.8141 Y5.2983
G01 X13.5067 Y5.4436
G01 X13.2151 Y5.6185
G01 X12.9454 Y5.8183
G01 X12.0465 Y5.8183
G01 X12.2445 Y5.6039
G01 X12.5423 Y5.3340
G01 X12.8651 Y5.0946
G01 X13.2097 Y4.8880
G01 X13.5730 Y4.7162
G01 X13.9514 Y4.5808
G01 X14.3412 Y4.4832
G01 X14.7069 Y4.4282
G00 Z0.5000
G00 X13.7420 Y4.4289
G01 F60.00
G01 Z-0.0500
G01 F120.00
G01 X13.4927 Y4.5222
G01 X13.1108 Y4.7028
G01 X12.9269 Y4.8070
G01 X12.5756 Y5.0417
G01 X12.4091 Y5.1717
G01 X12.0960 Y5.4554
G01 X11.7734 Y5.8183
G01 X11.5077 Y5.8183
G01 X11.7947 Y5.4674
G01 X12.1080 Y5.1541
G01 X12.2758 Y5.0094
G01 X12.4505 Y4.8730
G01 X12.8189 Y4.6269
G01 X13.2097 Y4.4180
G01 X13.4126 Y4.3281
G01 X13.0133 Y4.2818
G01 X12.9128 Y4.3324
G01 X12.7110 Y4.4467
G01 X12.3254 Y4.7043
G01 X11.9670 Y4.9985
G01 X11.6391 Y5.3264
G01 X11.3108 Y5.7334
G00 Z0.5000
G00 X11.1581 Y5.5855
G01 F60.00
G01 Z-0.0500
G01 F120.00
G01 X11.4835 Y5.1854
G01 X11.8260 Y4.8429
G01 X12.2003 Y4.5357
G01 X12.5790 Y4.2818
G00 Z0.5000
G00 X12.1962 Y4.2818
G01 F60.00
G01 Z-0.0500
G01 F120.00
G01 X11.8762 Y4.5224
G01 X11.5021 Y4.8614
G01 X11.1630 Y5.2355
G01 X10.9657 Y5.4942
G00 Z0.5000
G00 X10.7225 Y5.4749
G01 F60.00
G01 Z-0.0500
G01 F120.00
G01 X11.0006 Y5.1023
G01 X11.1723 Y4.9033
G01 X11.5439 Y4.5317
G01 X11.8432 Y4.2818
G00 Z0.5000
G00 X11.5122 Y4.2818
G01 F60.00
G01 Z-0.0500
G01 F120.00
G01 X11.2051 Y4.5645
G01 X11.0167 Y4.7623
G01 X10.6703 Y5.1844
G01 X10.4714 Y5.4735
G00 Z0.5000
G00 X10.2237 Y5.4721
G01 F60.00
G01 Z-0.0500
G01 F120.00
G01 X10.5016 Y5.0593
G01 X10.6760 Y4.8359
G01 X10.8611 Y4.6212
G01 X11.1975 Y4.2818
G00 Z0.5000
G00 X10.7520 Y4.4315
G01 F60.00
G01 Z-0.0500
G01 F120.00
G01 X10.3329 Y4.9342
G01 X9.9793 Y5.4708
G00 Z0.5000
G00 X9.7388 Y5.4695
G01 F60.00
G01 Z-0.0500
G01 F120.00
G01 X9.9892 Y5.0577
G01 X10.1642 Y4.8091
G01 X10.4708 Y4.4309
G01 X10.1941 Y4.4303
G01 X9.8146 Y4.9411
G01 X9.4943 Y5.4750
G00 Z0.5000
G00 X9.2112 Y5.5699
G01 F60.00
G01 Z-0.0500
G01 F120.00
G01 X9.4662 Y5.0987
G01 X9.6399 Y4.8244
G01 X9.9277 Y4.4298
G00 Z0.5000
G00 X12.1649 Y7.1817
G01 F60.00
G01 Z-0.0500
G01 F120.00
G01 X12.0754 Y7.4029
G01 X11.9827 Y7.7086
G01 X11.9204 Y8.0219
G01 X11.8890 Y8.3398
G01 X11.8890 Y8.6592
G01 X11.9204 Y8.9771
G01 X11.9827 Y9.2904
G01 X12.0754 Y9.5961
G01 X12.1976 Y9.8912
G01 X12.3482 Y10.1729
G01 X12.5257 Y10.4385
G01 X12.7283 Y10.6854
G01 X12.9542 Y10.9113
G01 X13.2011 Y11.1139
G01 X13.4667 Y11.2914
G01 X13.7484 Y11.4420
G01 X14.0435 Y11.5642
G01 X14.3492 Y11.6570
G01 X14.6625 Y11.7193
G01 X14.9804 Y11.7506
G01 X15.2998 Y11.7506
G01 X15.6177 Y11.7193
G01 X15.9310 Y11.6570
G01 X16.2367 Y11.5642
G01 X16.5318 Y11.4420
G01 X16.8135 Y11.2914
G01 X17.0791 Y11.1139
G01 X17.3260 Y10.9113
G01 X17.5519 Y10.6854
G01 X17.7546 Y10.4385
G01 X17.9320 Y10.1729
G01 X18.0826 Y9.8912
G01 X18.2048 Y9.5961
G01 X18.2976 Y9.2904
G01 X18.3599 Y8.9771
G01 X18.3912 Y8.6592
G01 X18.3912 Y8.3398
G01 X18.3599 Y8.0219
G01 X18.2976 Y7.7086
G01 X18.2048 Y7.4029
G01 X18.0826 Y7.1078
G01 X17.9320 Y6.8261
G01 X17.7546 Y6.5605
G01 X17.5519 Y6.3136
G01 X17.3260 Y6.0877
G01 X17.0791 Y5.8851
G01 X16.8135 Y5.7076
G01 X16.5318 Y5.5570
G01 X16.2367 Y5.4348
G01 X15.9310 Y5.3420
G01 X15.6177 Y5.2797
G01 X15.2998 Y5.2484
G01 X14.9804 Y5.2484
G01 X14.6625 Y5.2797
G01 X14.3492 Y5.3420
G01 X13.9340 Y5.4770
G01 X14.8223 Y5.4716
G01 X15.1401 Y5.4545
G01 X15.4386 Y5.4692
G01 X15.7342 Y5.5130
G01 X16.0240 Y5.5856
G01 X16.4420 Y5.7469
G01 X16.7056 Y5.8877
G01 X16.9540 Y6.0537
G01 X17.2933 Y6.3464
G01 X17.4939 Y6.5678
G01 X17.6719 Y6.8078
G01 X17.8256 Y7.0641
G01 X17.9533 Y7.3342
G01 X18.0540 Y7.6156
G01 X18.1266 Y7.9055
G01 X18.1705 Y8.2010
G01 X18.1851 Y8.4995
G01 X18.1705 Y8.7980
G01 X18.1266 Y9.0936
G01 X18.0540 Y9.3834
G01 X17.9533 Y9.6648
G01 X17.8256 Y9.9349
G01 X17.6719 Y10.1912
G01 X17.4939 Y10.4312
G01 X17.2933 Y10.6526
G01 X17.0718 Y10.8533
G01 X16.8318 Y11.0313
G01 X16.5755 Y11.1850
G01 X16.3054 Y11.3127
G01 X16.0240 Y11.4134
G01 X15.7342 Y11.4860
G01 X15.2895 Y11.5408
G01 X14.8417 Y11.5298
G01 X14.4002 Y11.4532
G01 X13.9748 Y11.3127
G01 X13.5747 Y11.1113
G01 X13.2084 Y10.8533
G01 X12.8839 Y10.5444
G01 X12.6083 Y10.1912
G01 X12.3875 Y9.8014
G01 X12.2262 Y9.3834
G01 X12.1281 Y8.9463
G01 X12.0951 Y8.4995
G01 X12.1281 Y8.0527
G01 X12.2262 Y7.6156
G01 X12.3955 Y7.1817
G00 Z0.5000
G00 X12.6305 Y7.1817
G01 F60.00
G01 Z-0.0500
G01 F120.00
G01 X12.5209 Y7.4146
G01 X12.4272 Y7.6765
G01 X12.3358 Y8.0835
G01 X12.3051 Y8.4995
G01 X12.3358 Y8.9155
G01 X12.3901 Y9.1883
G01 X12.4708 Y9.4546
G01 X12.6399 Y9.8359
G01 X12.8630 Y10.1883
G01 X13.1355 Y10.5041
G01 X13.4513 Y10.7766
G01 X13.8037 Y10.9997
G01 X14.0552 Y11.1187
G01 X14.3172 Y11.2124
G01 X14.7241 Y11.3038
G01 X15.1401 Y11.3345
G01 X15.5561 Y11.3038
G01 X15.9631 Y11.2124
G01 X16.2250 Y11.1187
G01 X16.4765 Y10.9997
G01 X16.7152 Y10.8567
G01 X16.9386 Y10.6910
G01 X17.2407 Y10.4034
G01 X17.4973 Y10.0745
G01 X17.7029 Y9.7116
G01 X17.8094 Y9.4546
G01 X17.8902 Y9.1883
G01 X17.9615 Y8.7774
G01 X17.9717 Y8.3604
G01 X17.9206 Y7.9464
G01 X17.8530 Y7.6765
G01 X17.7593 Y7.4146
G01 X17.5718 Y7.0420
G01 X17.3316 Y6.7010
G01 X17.0440 Y6.3989
G01 X16.7152 Y6.1423
G01 X16.3522 Y5.9367
G01 X15.9631 Y5.7866
G01 X15.5257 Y5.6914
G00 Z0.5000
G00 X15.6569 Y5.9260
G01 F60.00
G01 Z-0.0500
G01 F120.00
G01 X15.9021 Y5.9875
G01 X16.1447 Y6.0743
G01 X16.4896 Y6.2480
G01 X16.8054 Y6.4703
G01 X17.0851 Y6.7367
G01 X17.2485 Y6.9358
G01 X17.3917 Y7.1500
G01 X17.5653 Y7.4950
G01 X17.6865 Y7.8617
G01 X17.7525 Y8.2422
G01 X17.7651 Y8.4995
G01 X17.7525 Y8.7568
G01 X17.6865 Y9.1373
G01 X17.5653 Y9.5040
G01 X17.3917 Y9.8490
G01 X17.1693 Y10.1648
G01 X16.9030 Y10.4445
G01 X16.5985 Y10.6821
G01 X16.2625 Y10.8725
G01 X15.9021 Y11.0115
G01 X15.6522 Y11.0741
G01 X15.3974 Y11.1119
G01 X15.0113 Y11.1213
G01 X14.6280 Y11.0741
G01 X14.2558 Y10.9711
G01 X13.9027 Y10.8145
G01 X13.6817 Y10.6821
G01 X13.4748 Y10.5287
G01 X13.1951 Y10.2623
G01 X12.9575 Y9.9579
G01 X12.8251 Y9.7369
G01 X12.7149 Y9.5040
G01 X12.5938 Y9.1373
G01 X12.5278 Y8.7568
G01 X12.5183 Y8.3707
G01 X12.5656 Y7.9874
G01 X12.6686 Y7.6152
G01 X12.7671 Y7.3772
G01 X12.8706 Y7.1817
G00 Z0.5000
G00 X13.1170 Y7.1817
G01 F60.00
G01 Z-0.0500
G01 F120.00
G01 X13.0103 Y7.3611
G01 X12.9090 Y7.5753
G01 X12.7975 Y7.9127
G01 X12.7367 Y8.2628
G01 X12.7280 Y8.6180
G01 X12.7715 Y8.9706
G01 X12.8291 Y9.2005
G01 X12.9090 Y9.4237
G01 X13.0687 Y9.7411
G01 X13.2733 Y10.0316
G01 X13.5183 Y10.2889
G01 X13.7984 Y10.5075
G01 X14.1076 Y10.6826
G01 X14.3265 Y10.7733
G01 X14.5533 Y10.8421
G01 X14.9034 Y10.9029
G01 X15.1401 Y10.9145
G01 X15.3768 Y10.9029
G01 X15.7269 Y10.8421
G01 X16.0643 Y10.7307
G01 X16.2785 Y10.6293
G01 X16.4818 Y10.5075
G01 X16.7619 Y10.2889
G01 X17.0069 Y10.0316
G01 X17.2115 Y9.7411
G01 X17.3713 Y9.4237
G01 X17.4827 Y9.0863
G01 X17.5290 Y8.8539
G01 X17.5522 Y8.6180
G01 X17.5435 Y8.2628
G01 X17.4827 Y7.9127
G01 X17.4139 Y7.6859
G01 X17.3233 Y7.4670
G01 X17.1481 Y7.1578
G01 X16.9295 Y6.8777
G01 X16.6722 Y6.6327
G01 X16.3817 Y6.4281
G01 X16.0643 Y6.2683
G01 X15.6810 Y6.1466
G00 Z0.5000
G00 X15.6786 Y6.3613
G01 F60.00
G01 Z-0.0500
G01 F120.00
G01 X15.8830 Y6.4234
G01 X16.0829 Y6.5062
G01 X16.3652 Y6.6661
G01 X16.6209 Y6.8657
G01 X16.8446 Y7.1007
G01 X16.9735 Y7.2745
G01 X17.0848 Y7.4601
G01 X17.2162 Y7.7567
G01 X17.3028 Y8.0693
G01 X17.3425 Y8.3913
G01 X17.3345 Y8.7156
G01 X17.2790 Y9.0353
G01 X17.2162 Y9.2423
G01 X17.1334 Y9.4423
G01 X16.9735 Y9.7245
G01 X16.7739 Y9.9803
G01 X16.5390 Y10.2040
G01 X16.2737 Y10.3908
G01 X15.9839 Y10.5367
G01 X15.6759 Y10.6384
G01 X15.3562 Y10.6939
G01 X15.1401 Y10.7045
G01 X14.9240 Y10.6939
G01 X14.6043 Y10.6384
G01 X14.2963 Y10.5367
G01 X14.0065 Y10.3908
G01 X13.8266 Y10.2706
G01 X13.6593 Y10.1333
G01 X13.4356 Y9.8983
G01 X13.2488 Y9.6331
G01 X13.1468 Y9.4423
G01 X13.0640 Y9.2423
G01 X12.9775 Y8.9297
G01 X12.9378 Y8.6077
G01 X12.9457 Y8.2834
G01 X13.0012 Y7.9637
G01 X13.1030 Y7.6557
G01 X13.2709 Y7.3310
G00 Z0.5000
G00 X13.4326 Y7.4682
G01 F60.00
G01 Z-0.0500
G01 F120.00
G01 X13.2970 Y7.7360
G01 X13.2049 Y8.0148
G01 X13.1547 Y8.3040
G01 X13.1475 Y8.5974
G01 X13.1835 Y8.8887
G01 X13.2617 Y9.1716
G01 X13.4290 Y9.5251
G01 X13.5980 Y9.7651
G01 X13.8745 Y10.0417
G01 X14.1145 Y10.2107
G01 X14.3767 Y10.3426
G01 X14.6554 Y10.4347
G01 X14.9446 Y10.4849
G01 X15.2380 Y10.4921
G01 X15.5293 Y10.4562
G01 X15.9036 Y10.3426
G01 X16.1658 Y10.2107
G01 X16.4057 Y10.0417
G01 X16.6183 Y9.8393
G01 X16.7989 Y9.6079
G01 X16.9833 Y9.2630
G01 X17.0753 Y8.9842
G01 X17.1255 Y8.6950
G01 X17.1327 Y8.4016
G01 X17.0753 Y8.0148
G01 X16.9833 Y7.7360
G01 X16.8513 Y7.4739
G01 X16.6823 Y7.2339
G01 X16.4799 Y7.0213
G01 X16.2485 Y6.8407
G01 X15.9931 Y6.6960
G01 X15.6762 Y6.5785
G00 Z0.5000
G00 X15.6738 Y6.7965
G01 F60.00
G01 Z-0.0500
G01 F120.00
G01 X15.9816 Y6.9253
G01 X16.2034 Y7.0658
G01 X16.4023 Y7.2373
G01 X16.5738 Y7.4362
G01 X16.7143 Y7.6581
G01 X16.8483 Y7.9813
G01 X16.9058 Y8.2376
G01 X16.9251 Y8.4995
G01 X16.9058 Y8.7614
G01 X16.8483 Y9.0177
G01 X16.7537 Y9.2627
G01 X16.6243 Y9.4912
G01 X16.4627 Y9.6982
G01 X16.2725 Y9.8793
G01 X15.9816 Y10.0737
G01 X15.7415 Y10.1802
G01 X15.4884 Y10.2502
G01 X15.2277 Y10.2824
G01 X14.9652 Y10.2759
G01 X14.7064 Y10.2310
G01 X14.4570 Y10.1486
G01 X14.2224 Y10.0305
G01 X14.0077 Y9.8793
G01 X13.7603 Y9.6319
G01 X13.6091 Y9.4172
G01 X13.4595 Y9.1008
G01 X13.3894 Y8.8477
G01 X13.3573 Y8.5871
G01 X13.3637 Y8.3245
G01 X13.4086 Y8.0658
G01 X13.4910 Y7.8164
G01 X13.6324 Y7.5450
G00 Z0.5000
G00 X13.8855 Y7.5480
G01 F60.00
G01 Z-0.0500
G01 F120.00
G01 X13.7511 Y7.7571
G01 X13.6572 Y7.9689
G01 X13.5954 Y8.1922
G01 X13.5670 Y8.4222
G01 X13.5727 Y8.6539
G01 X13.6123 Y8.8822
G01 X13.6850 Y9.1022
G01 X13.8306 Y9.3745
G01 X13.9731 Y9.5572
G01 X14.2019 Y9.7646
G01 X14.3977 Y9.8885
G01 X14.6095 Y9.9824
G01 X14.8329 Y10.0442
G01 X15.0628 Y10.0726
G01 X15.3712 Y10.0575
G01 X15.5973 Y10.0067
G01 X15.8135 Y9.9233
G01 X16.0151 Y9.8091
G01 X16.1978 Y9.6665
G01 X16.3576 Y9.4987
G01 X16.4910 Y9.3092
G01 X16.5952 Y9.1022
G01 X16.6679 Y8.8822
G01 X16.7132 Y8.5768
G01 X16.7075 Y8.3451
G01 X16.6473 Y8.0423
G01 X16.5639 Y7.8261
G01 X16.4497 Y7.6245
G01 X16.3071 Y7.4418
G01 X16.1393 Y7.2820
G01 X15.9498 Y7.1486
G01 X15.6713 Y7.0168
G00 Z0.5000
G00 X15.6094 Y7.2179
G01 F60.00
G01 Z-0.0500
G01 F120.00
G01 X15.7836 Y7.2957
G01 X15.9532 Y7.4031
G01 X16.1953 Y7.6336
G01 X16.3741 Y7.9159
G01 X16.4789 Y8.2332
G01 X16.5035 Y8.5665
G01 X16.4463 Y8.8957
G01 X16.3109 Y9.2013
G01 X16.1053 Y9.4647
G01 X15.8419 Y9.6703
G01 X15.5364 Y9.8057
G01 X15.2071 Y9.8629
G01 X15.0063 Y9.8579
G01 X14.8085 Y9.8236
G01 X14.4967 Y9.7033
G01 X14.2234 Y9.5109
G01 X14.0052 Y9.2579
G01 X13.8549 Y8.9594
G01 X13.8013 Y8.7658
G01 X13.7768 Y8.5665
G01 X13.8013 Y8.2332
G01 X13.8549 Y8.0396
G01 X13.9363 Y7.8560
G01 X14.0437 Y7.6864
G01 X14.1600 Y7.5500
G01 X14.4797 Y7.5523
G01 X14.3234 Y7.6828
G01 X14.2124 Y7.8115
G01 X14.1215 Y7.9550
G01 X14.0526 Y8.1104
G01 X14.0073 Y8.2742
G01 X13.9865 Y8.4428
G01 X13.9907 Y8.6127
G01 X14.0197 Y8.7801
G01 X14.1215 Y9.0440
G01 X14.2473 Y9.2322
G01 X14.4074 Y9.3923
G01 X14.6463 Y9.5436
G01 X14.9148 Y9.6323
G01 X15.1968 Y9.6531
G01 X15.4754 Y9.6048
G01 X15.6339 Y9.5436
G01 X15.7818 Y9.4598
G01 X15.9959 Y9.2752
G01 X16.1587 Y9.0440
G01 X16.2276 Y8.8886
G01 X16.2729 Y8.7248
G01 X16.2937 Y8.4428
G01 X16.2729 Y8.2742
G01 X16.2072 Y8.0575
G01 X16.1308 Y7.9057
G01 X16.0329 Y7.7668
G01 X15.9158 Y7.6437
G01 X15.7818 Y7.5392
G01 X15.6339 Y7.4554
G01 X15.4698 Y7.3927
G01 X15.4551 Y8.4995
G01 X15.4547 Y8.4840
G01 X15.4536 Y8.4686
G01 X15.4491 Y8.4380
G01 X15.4311 Y8.3790
G01 X15.3517 Y8.2661
G01 X15.2462 Y8.2029
G01 X15.1092 Y8.1860
G01 X14.9782 Y8.2293
G01 X14.8871 Y8.3119
G01 X14.8312 Y8.4380
G01 X14.8312 Y8.5610
G01 X14.8699 Y8.6614
G01 X14.9525 Y8.7525
G01 X15.0487 Y8.8009
G01 X15.1556 Y8.8141
G01 X15.2607 Y8.7905
G01 X15.3629 Y8.7222
G01 X15.4311 Y8.6200
G01 X15.4491 Y8.5610
G01 X15.4536 Y8.5304
G01 X15.4547 Y8.5150
G01 X15.4551 Y8.4995
G01 X15.2451 Y8.4995
G01 X15.2302 Y8.4455
G01 X15.1941 Y8.4094
G01 X15.1401 Y8.3945
G01 X15.0861 Y8.4094
G01 X15.0431 Y8.4593
G01 X15.0371 Y8.5200
G01 X15.0659 Y8.5737
G01 X15.1247 Y8.6034
G01 X15.1706 Y8.6000
G01 X15.2106 Y8.5773
G01 X15.2451 Y8.4995
G01 X15.6651 Y8.4995
G01 X15.6494 Y8.3719
G01 X15.6147 Y8.2750
G01 X15.5460 Y8.1664
G01 X15.4732 Y8.0937
G01 X15.4529 Y8.0778
G01 X15.4318 Y8.0630
G01 X15.3876 Y8.0365
G01 X15.2925 Y7.9971
G01 X15.1659 Y7.9751
G01 X15.0631 Y7.9802
G01 X14.9633 Y8.0052
G01 X14.8484 Y8.0630
G01 X14.7689 Y8.1283
G01 X14.6898 Y8.2296
G01 X14.6458 Y8.3226
G01 X14.6176 Y8.4480
G01 X14.6208 Y8.5765
G01 X14.6458 Y8.6764
G01 X14.7343 Y8.8326
G01 X14.8702 Y8.9498
G01 X15.0377 Y9.0144
G01 X15.2172 Y9.0188
G01 X15.3876 Y8.9625
G01 X15.4732 Y8.9053
G01 X15.5460 Y8.8326
G01 X15.6344 Y8.6764
G01 X15.6651 Y8.4995
G01 X15.8751 Y8.4995
G01 X15.8531 Y8.3209
G01 X15.7706 Y8.1216
G01 X15.6337 Y7.9549
G01 X15.4866 Y7.8513
G01 X15.4544 Y7.8351
G01 X15.4214 Y7.8204
G01 X15.3187 Y7.7865
G01 X15.1041 Y7.7654
G01 X14.8925 Y7.8075
G01 X14.7318 Y7.8884
G01 X14.5720 Y8.0332
G01 X14.4757 Y8.1852
G01 X14.4192 Y8.3561
G01 X14.4087 Y8.5715
G01 X14.4611 Y8.7808
G01 X14.5498 Y8.9373
G01 X14.7023 Y9.0899
G01 X14.8588 Y9.1786
G01 X15.0323 Y9.2265
G01 X15.2122 Y9.2310
G01 X15.4214 Y9.1786
G01 X15.5780 Y9.0899
G01 X15.6847 Y8.9931
G01 X15.7883 Y8.8460
G01 X15.8531 Y8.6781
G01 X15.8751 Y8.4995
G01 X16.0851 Y8.4995
G01 X16.0670 Y8.3151
G01 X15.9944 Y8.0955
G01 X15.8706 Y7.9000
G01 X15.7031 Y7.7405
G01 X15.5018 Y7.6264
G01 X15.4585 Y7.6097
G01 X15.4144 Y7.5952
G01 X15.2788 Y7.5647
G01 X15.1401 Y7.5545
G01 X15.0015 Y7.5647
G01 X14.7785 Y7.6264
G01 X14.5772 Y7.7405
G01 X14.4096 Y7.9000
G01 X14.2858 Y8.0955
G01 X14.2133 Y8.3151
G01 X14.1963 Y8.4531
G01 X14.1997 Y8.5921
G01 X14.2504 Y8.8179
G01 X14.3544 Y9.0245
G01 X14.4399 Y9.1341
G01 X14.5406 Y9.2300
G01 X14.7361 Y9.3538
G01 X14.9558 Y9.4263
G01 X15.1865 Y9.4434
G01 X15.4144 Y9.4038
G01 X15.6259 Y9.3101
G01 X15.8083 Y9.1677
G01 X15.8992 Y9.0624
G01 X15.9735 Y8.9450
G01 X16.0568 Y8.7291
G01 X16.0851 Y8.4995
G00 Z0.5000
G00 X18.8500 Y0.8481
G01 F60.00
G01 Z-0.0500
G01 F120.00
G01 X18.3948 Y0.6419
G01 X18.0054 Y0.4917
G01 X17.6090 Y0.3607
G01 X17.2067 Y0.2494
G01 X16.7537 Y0.1500
G00 Z0.5000
G00 X17.6347 Y0.1500
G01 F60.00
G01 Z-0.0500
G01 F120.00
G01 X18.0761 Y0.2939
G01 X18.4752 Y0.4479
G01 X18.8500 Y0.6140
G00 Z0.5000
G00 X18.8500 Y0.3844
G01 F60.00
G01 Z-0.0500
G01 F120.00
G01 X18.2863 Y0.1500
G00 Z0.5000
G00 X18.8393 Y0.1500
G01 F60.00
G01 Z-0.0500
G01 F120.00
G01 X18.8500 Y0.1548
G00 Z0.5000
M05
G00 Z0.5000
G00 Z15.00


