(G-code generated by FlatCAM Evo vUnstable - Version Date: 2023/6/31)

(Name: teszt5-NPTH.drl_exc_cnc_cnc)
(Type: G-code from Geometry)
(Units: MM)

(Created on kedd, 16 január 2024 at 21:26)

(This preprocessor is the default preprocessor.)
(It is made to work with MACH3 compatible motion controllers.)

(TOOL DIAMETER: 2.0 mm)
(Feedrate_XY: 120.0 mm/min)
(Feedrate_Z: 60.0 mm/min)
(Feedrate rapids 1500.0 mm/min)

(Z_Cut: -1.8 mm)
(Z_Move: 2.0 mm)
(Z Start: None mm)
(Z End: 15.0 mm)
(X,Y End: None mm)
(Steps per circle: 16)
(Preprocessor Geometry: default)

(X range:   13.3750 ...   16.5750  mm)
(Y range:   11.9000 ...   15.1000  mm)

(Spindle Speed: 0.0 RPM)
G21
G90
G94

G01 F120.00
G00 Z2.0000

M03
G01 F120.00
G00 X15.5738 Y13.5000
G01 F60.00
G01 Z-1.8000
G01 F120.00
G01 X15.5623 Y13.3832
G01 X15.5282 Y13.2709
G01 X15.4729 Y13.1673
G01 X15.3984 Y13.0766
G01 X15.3077 Y13.0021
G01 X15.2041 Y12.9468
G01 X15.0918 Y12.9127
G01 X14.9750 Y12.9012
G01 X14.8582 Y12.9127
G01 X14.7459 Y12.9468
G01 X14.6423 Y13.0021
G01 X14.5516 Y13.0766
G01 X14.4771 Y13.1673
G01 X14.4218 Y13.2709
G01 X14.3877 Y13.3832
G01 X14.3762 Y13.5000
G01 X14.3877 Y13.6168
G01 X14.4218 Y13.7291
G01 X14.4771 Y13.8327
G01 X14.5516 Y13.9234
G01 X14.6423 Y13.9979
G01 X14.7459 Y14.0532
G01 X14.8582 Y14.0873
G01 X14.9750 Y14.0988
G01 X15.0918 Y14.0873
G01 X15.2041 Y14.0532
G01 X15.3077 Y13.9979
G01 X15.3984 Y13.9234
G01 X15.4729 Y13.8327
G01 X15.5282 Y13.7291
G01 X15.5623 Y13.6168
G01 X15.5738 Y13.5000
G00 Z2.0000
M05
G00 Z2.0000
G00 Z15.00


