(G-code generated by FlatCAM Evo vUnstable - Version Date: 2023/6/31)

(Name: teszt5-Edge_Cuts_cutout_cnc)
(Type: G-code from Geometry)
(Units: MM)

(Created on kedd, 16 január 2024 at 21:26)

(This preprocessor is the default preprocessor.)
(It is made to work with MACH3 compatible motion controllers.)

(TOOL DIAMETER: 2.0 mm)
(Feedrate_XY: 120.0 mm/min)
(Feedrate_Z: 60.0 mm/min)
(Feedrate rapids 1500.0 mm/min)

(Z_Cut: -1.8 mm)
(DepthPerCut: 0.6 mm <=>3 passes)
(Z_Move: 2.0 mm)
(Z Start: None mm)
(Z End: 15.0 mm)
(X,Y End: None mm)
(Steps per circle: 16)
(Preprocessor Geometry: default)

(X range:   -1.1500 ...   19.6502  mm)
(Y range:   -1.1500 ...   18.1500  mm)

(Spindle Speed: 0.0 RPM)
G21
G90
G94

G01 F120.00
G00 Z2.0000

M03
G01 F120.00
G00 X8.0001 Y-1.1500
G01 F60.00
G01 Z-0.6000
G01 F120.00
G01 X3.4411 Y-1.1485
G01 X3.2756 Y-1.1279
G01 X1.9098 Y-0.8559
G01 X1.7709 Y-0.8155
G01 X1.6185 Y-0.7478
G01 X1.5217 Y-0.6898
G01 X0.3862 Y0.0689
G01 X0.2956 Y0.1361
G01 X0.2119 Y0.2119
G01 X0.0842 Y0.3639
G01 X-0.6898 Y1.5217
G01 X-0.7478 Y1.6185
G01 X-0.7961 Y1.7205
G01 X-0.8559 Y1.9098
G01 X-1.1329 Y3.3022
G01 X-1.1500 Y3.5000
G01 X-1.1487 Y13.5540
G01 X-1.1279 Y13.7244
G01 X-0.8559 Y15.0902
G01 X-0.7961 Y15.2795
G01 X-0.7045 Y15.4557
G01 X0.0842 Y16.6361
G01 X0.1714 Y16.7453
G01 X0.2510 Y16.8253
G01 X0.3862 Y16.9311
G01 X1.5443 Y17.7045
G01 X1.6712 Y17.7742
G01 X1.8268 Y17.8341
G01 X1.9362 Y17.8615
G01 X3.2756 Y18.1279
G01 X3.4411 Y18.1485
G01 X8.0001 Y18.1500
G00 X8.0001 Y18.1500
G01 F60.00
G01 Z-1.2000
G01 F120.00
G01 X3.4411 Y18.1485
G01 X3.2756 Y18.1279
G01 X1.9098 Y17.8559
G01 X1.7709 Y17.8155
G01 X1.6185 Y17.7478
G01 X1.5217 Y17.6898
G01 X0.3862 Y16.9311
G01 X0.2956 Y16.8639
G01 X0.2119 Y16.7881
G01 X0.0842 Y16.6361
G01 X-0.6898 Y15.4783
G01 X-0.7478 Y15.3815
G01 X-0.7961 Y15.2795
G01 X-0.8559 Y15.0902
G01 X-1.1329 Y13.6978
G01 X-1.1500 Y13.5000
G01 X-1.1487 Y3.4460
G01 X-1.1279 Y3.2756
G01 X-0.8559 Y1.9098
G01 X-0.7961 Y1.7205
G01 X-0.7045 Y1.5443
G01 X0.0842 Y0.3639
G01 X0.1714 Y0.2547
G01 X0.2510 Y0.1747
G01 X0.3862 Y0.0689
G01 X1.5443 Y-0.7045
G01 X1.6712 Y-0.7742
G01 X1.8268 Y-0.8341
G01 X1.9362 Y-0.8615
G01 X3.2756 Y-1.1279
G01 X3.4411 Y-1.1485
G01 X8.0001 Y-1.1500
G00 X8.0001 Y-1.1500
G01 F60.00
G01 Z-1.8000
G01 F120.00
G01 X3.4411 Y-1.1485
G01 X3.2756 Y-1.1279
G01 X1.9098 Y-0.8559
G01 X1.7709 Y-0.8155
G01 X1.6185 Y-0.7478
G01 X1.5217 Y-0.6898
G01 X0.3862 Y0.0689
G01 X0.2956 Y0.1361
G01 X0.2119 Y0.2119
G01 X0.0842 Y0.3639
G01 X-0.6898 Y1.5217
G01 X-0.7478 Y1.6185
G01 X-0.7961 Y1.7205
G01 X-0.8559 Y1.9098
G01 X-1.1329 Y3.3022
G01 X-1.1500 Y3.5000
G01 X-1.1487 Y13.5540
G01 X-1.1279 Y13.7244
G01 X-0.8559 Y15.0902
G01 X-0.7961 Y15.2795
G01 X-0.7045 Y15.4557
G01 X0.0842 Y16.6361
G01 X0.1714 Y16.7453
G01 X0.2510 Y16.8253
G01 X0.3862 Y16.9311
G01 X1.5443 Y17.7045
G01 X1.6712 Y17.7742
G01 X1.8268 Y17.8341
G01 X1.9362 Y17.8615
G01 X3.2756 Y18.1279
G01 X3.4411 Y18.1485
G01 X8.0001 Y18.1500
G00 Z2.0000
G00 X10.5001 Y18.1500
G01 F60.00
G01 Z-0.6000
G01 F120.00
G01 X15.0229 Y18.1495
G01 X15.1675 Y18.1359
G01 X16.3108 Y17.9530
G01 X16.4270 Y17.9216
G01 X16.5654 Y17.8661
G01 X17.5669 Y17.3562
G01 X17.7186 Y17.2634
G01 X17.8580 Y17.1447
G01 X18.6323 Y16.3704
G01 X18.7129 Y16.2810
G01 X18.7836 Y16.1836
G01 X18.8438 Y16.0793
G01 X19.3409 Y15.1037
G01 X19.4091 Y14.9394
G01 X19.4521 Y14.7615
G01 X19.6234 Y13.6799
G01 X19.6356 Y13.5677
G01 X19.6502 Y3.5000
G01 X19.6447 Y3.3880
G01 X19.6283 Y3.2771
G01 X19.3560 Y1.9098
G01 X19.2962 Y1.7205
G01 X19.2479 Y1.6185
G01 X19.1899 Y1.5217
G01 X18.4159 Y0.3639
G01 X18.2882 Y0.2119
G01 X18.2046 Y0.1361
G01 X18.1139 Y0.0689
G01 X16.9784 Y-0.6898
G01 X16.8816 Y-0.7478
G01 X16.7292 Y-0.8155
G01 X16.5903 Y-0.8559
G01 X15.2245 Y-1.1279
G01 X15.0590 Y-1.1485
G01 X10.5001 Y-1.1500
G00 X10.5001 Y-1.1500
G01 F60.00
G01 Z-1.2000
G01 F120.00
G01 X15.0590 Y-1.1485
G01 X15.2245 Y-1.1279
G01 X16.5903 Y-0.8559
G01 X16.7292 Y-0.8155
G01 X16.8816 Y-0.7478
G01 X16.9784 Y-0.6898
G01 X18.1139 Y0.0689
G01 X18.2046 Y0.1361
G01 X18.2882 Y0.2119
G01 X18.4159 Y0.3639
G01 X19.1899 Y1.5217
G01 X19.2479 Y1.6185
G01 X19.2962 Y1.7205
G01 X19.3560 Y1.9098
G01 X19.6283 Y3.2771
G01 X19.6447 Y3.3880
G01 X19.6502 Y3.5000
G01 X19.6356 Y13.5677
G01 X19.6234 Y13.6799
G01 X19.4521 Y14.7615
G01 X19.4091 Y14.9394
G01 X19.3409 Y15.1037
G01 X18.8438 Y16.0793
G01 X18.7836 Y16.1836
G01 X18.7129 Y16.2810
G01 X18.6323 Y16.3704
G01 X17.8580 Y17.1447
G01 X17.7186 Y17.2634
G01 X17.5669 Y17.3562
G01 X16.5654 Y17.8661
G01 X16.4270 Y17.9216
G01 X16.3108 Y17.9530
G01 X15.1675 Y18.1359
G01 X15.0229 Y18.1495
G01 X10.5001 Y18.1500
G00 X10.5001 Y18.1500
G01 F60.00
G01 Z-1.8000
G01 F120.00
G01 X15.0229 Y18.1495
G01 X15.1675 Y18.1359
G01 X16.3108 Y17.9530
G01 X16.4270 Y17.9216
G01 X16.5654 Y17.8661
G01 X17.5669 Y17.3562
G01 X17.7186 Y17.2634
G01 X17.8580 Y17.1447
G01 X18.6323 Y16.3704
G01 X18.7129 Y16.2810
G01 X18.7836 Y16.1836
G01 X18.8438 Y16.0793
G01 X19.3409 Y15.1037
G01 X19.4091 Y14.9394
G01 X19.4521 Y14.7615
G01 X19.6234 Y13.6799
G01 X19.6356 Y13.5677
G01 X19.6502 Y3.5000
G01 X19.6447 Y3.3880
G01 X19.6283 Y3.2771
G01 X19.3560 Y1.9098
G01 X19.2962 Y1.7205
G01 X19.2479 Y1.6185
G01 X19.1899 Y1.5217
G01 X18.4159 Y0.3639
G01 X18.2882 Y0.2119
G01 X18.2046 Y0.1361
G01 X18.1139 Y0.0689
G01 X16.9784 Y-0.6898
G01 X16.8816 Y-0.7478
G01 X16.7292 Y-0.8155
G01 X16.5903 Y-0.8559
G01 X15.2245 Y-1.1279
G01 X15.0590 Y-1.1485
G01 X10.5001 Y-1.1500
G00 Z2.0000
M05
G00 Z2.0000
G00 Z15.00


